!!!!SEGMENT: pl-kozmzk--mzk-m-31--015_szymanowska-maria--preludium-c-dur.krn
!!!cenid: 18xx:451
!!!COM: Szymanowska, Maria
!!!COM-rismID:
!!!CDT: 1789/12/14-1831/07/25
!!!CNT: Polish
!!!GTL: Vingt Exercices et Préludes pour le Pianoforte
!!!OTL: Preludium c-moll
!!!PDT: 1819
!!!AGN: Secular; Prelude
!!!SMS-siglum: PL-KOZmzk
!!!SMS-shelfmark: mzk/m/31
!!!SMS-shelfwork: 015 G
!!!SMS-variant:
!!!SMS-altvar:
!!!NIFC-rismSourceID: 1001025338
!!!NIFC-islandoraID: pl-kozmzk:6325
!!!URL-pdf-islandora: https://repozytorium.nifc.pl/islandora/object/pl-kozmzk%3A6325/datastream/PDF/view
!!!URL-scan: https://polish.musicsources.pl/pl/lokalizacje/galeria/rekopisy/462 @EN{Scan on Polish Music Herritage in Open Access Website} @PL{Skany w portalu Dziedzictwo Muzyki Polskiej w otwartym dostępie}
!!!ONB-nifc:
!!!AIN: 1 piano
!!!key:
**kern	**fing	**dynam	**kern	**fing	**dynam
*part1	*	*	*part1	*	*part1
*staff2	*	*	*staff1	*	*
*Ipiano	*	*	*Iempty	*	*
*I"Piano	*	*	*	*	*
*I'P-no	*	*	*	*	*
*clefF4	*	*	*clefG2	*	*
*k[]	*	*	*k[]	*	*
*C:	*	*	*C:	*	*
*M3/8	*	*	*M3/8	*	*
=1	=1	=1	=1	=1	=1
!	!	!	!LO:TX:a:i:B:t=Vivace	!	!
8CC/ 8C/	.	.	8cc\ 8ee\ 8gg\ 8ccc\	.	f
16r	.	.	16r	1	.
(32c\LLL	1	.	(32c/LLL	2	.
32G\JJJ	2	.	32e/JJJ	4	.
32E\LLL	4	.	32g\LLL	1	.
32C\	1	.	32cc\	2	.
32GG\	2	.	32ee\	4	.
32EE\JJJ)	.	.	32gg\JJJ)	.	.
=2	=2	=2	=2	=2	=2
8CC/ 8C/	.	.	8cc\ 8ee\ 8gg\ 8ccc\	.	f
16r	.	.	16r	.	.
(32c\LLL	.	.	(32c/LLL	.	.
32G\JJJ	.	.	32e/JJJ)	.	.
32E\LLL	.	.	(32g\LLL	.	.
32C\	.	.	32cc\	.	.
32GG\	.	.	32ee\	.	.
32EE\JJJ)	.	.	32gg\JJJ)	.	.
=3	=3	=3	=3	=3	=3
4CC;/ 4C/	.	.	4cc;\ 4ee\ 4gg\ 4ccc\	.	.
8r	.	.	8r	.	.
=4	=4	=4	=4	=4	=4
*^	*	*	*^	*	*
!	!	!	!	!	!	!	!LO:DY:rj
8B/L	4.C\	.	.	8dd/L	32dd\LLL	.	p
!	!	!	!	!	!LO:TX:a:t=ben mar-ca-te	!	!
.	.	.	.	.	32g\	.	.
.	.	.	.	.	32f\	.	.
.	.	.	.	.	32g\JJJ	.	.
8G/	.	.	.	8ee/	32ee\LLL	.	.
.	.	.	.	.	32g\	.	.
.	.	.	.	.	32f\	.	.
.	.	.	.	.	32g\JJJ	.	.
8G/J	.	.	.	8dd/J	32dd\LLL	.	.
.	.	.	.	.	32g\	.	.
.	.	.	.	.	32f\	.	.
.	.	.	.	.	32g\JJJ	.	.
=5	=5	=5	=5	=5	=5	=5	=5
8c/L	4.C\	.	.	8cc/L	32cc\LLL	.	.
.	.	.	.	.	32g\	.	.
.	.	.	.	.	32e\	.	.
.	.	.	.	.	32g\JJJ	.	.
8G/	.	.	.	8b/	32b\LLL	.	.
.	.	.	.	.	32g\	.	.
.	.	.	.	.	32e\	.	.
.	.	.	.	.	32g\JJJ	.	.
8G/J	.	.	.	8a/J	32a\LLL	.	.
.	.	.	.	.	32g\	.	.
.	.	.	.	.	32e\	.	.
.	.	.	.	.	32g\JJJ	.	.
!!LO:LB:g=original
=6	=6	=6	=6	=6	=6	=6	=6
8B/L	4.C\	.	.	8g/L	32g\LLL	.	.
.	.	.	.	.	32f\	.	.
.	.	.	.	.	32d\	.	.
.	.	.	.	.	32f\JJJ	.	.
8G/	.	.	.	8a/	32a\LLL	.	.
.	.	.	.	.	32f\	.	.
.	.	.	.	.	32d\	.	.
.	.	.	.	.	32f\JJJ	.	.
8d/J	.	.	.	8b/J	32b\LLL	.	.
.	.	.	.	.	32f\	.	.
.	.	.	.	.	32d\	.	.
.	.	.	.	.	32f\JJJ	.	.
=7	=7	=7	=7	=7	=7	=7	=7
8c/L	4.C\	.	.	4cc/	32cc\LLL	.	.
.	.	.	.	.	32g\	.	.
.	.	.	.	.	32e\	.	.
.	.	.	.	.	32g\JJJ	.	.
8G/	.	.	.	.	32e\LLL	.	.
.	.	.	.	.	32g\	.	.
.	.	.	.	.	32e\	.	.
.	.	.	.	.	32g\JJJ	.	.
8G/J	.	.	.	8cc#X/	32cc#\LLL	.	.
.	.	.	.	.	32g\	.	.
.	.	.	.	.	32e\	.	.
.	.	.	.	.	32g\JJJ	.	.
=8	=8	=8	=8	=8	=8	=8	=8
8B/L	4.C\	.	.	8dd/L	32dd\LLL	.	.
.	.	.	.	.	32g\	.	.
.	.	.	.	.	32f\	.	.
.	.	.	.	.	32g\JJJ	.	.
8G/	.	.	.	8ee/	32ee\LLL	.	.
.	.	.	.	.	32g\	.	.
.	.	.	.	.	32f\	.	.
.	.	.	.	.	32g\JJJ	.	.
8G/J	.	.	.	8ff/J	32ff\LLL	.	.
.	.	.	.	.	32g\	.	.
.	.	.	.	.	32f\	.	.
.	.	.	.	.	32g\JJJ	.	.
=9	=9	=9	=9	=9	=9	=9	=9
8c/L	4.C\	.	.	4rffyy	32gg\LLL	.	.
.	.	.	.	.	32g\	.	.
.	.	.	.	.	32e\	.	.
.	.	.	.	.	32g\JJJ	.	.
8G/	.	.	.	.	32e\LLL	.	.
.	.	.	.	.	32g\	.	.
.	.	.	.	.	32e\	.	.
.	.	.	.	.	32g\JJJ	.	.
8G/J	.	.	.	8ee/	32ee\LLL	.	.
.	.	.	.	.	32g\	.	.
.	.	.	.	.	32e\	.	.
.	.	.	.	.	32g\JJJ	.	.
!!LO:LB:g=original
=10	=10	=10	=10	=10	=10	=10	=10
8B/L	4.C\	.	.	8dd/L	32dd\LLL	.	.
.	.	.	.	.	32g\	.	.
.	.	.	.	.	32f\	.	.
.	.	.	.	.	32g\JJJ	.	.
8G/	.	.	.	8ee/	32ee\LLL	.	.
.	.	.	.	.	32g\	.	.
.	.	.	.	.	32f\	.	.
.	.	.	.	.	32g\JJJ	.	.
8G/J	.	.	.	8dd/J	32dd\LLL	.	.
.	.	.	.	.	32g\	.	.
.	.	.	.	.	32f\	.	.
.	.	.	.	.	32g\JJJ	.	.
=11	=11	=11	=11	=11	=11	=11	=11
8c/L	4.C\	.	.	4cc/	32cc\LLL	.	.
.	.	.	.	.	32g\	.	.
.	.	.	.	.	32e\	.	.
.	.	.	.	.	32g\JJJ	.	.
8G/	.	.	.	.	32e\LLL	.	.
.	.	.	.	.	32g\	.	.
.	.	.	.	.	32e\	.	.
.	.	.	.	.	32g\JJJ	.	.
8G/J	.	.	.	8r	32e\LLL	.	.
.	.	.	.	.	32g\	.	.
.	.	.	.	.	32e\	.	.
.	.	.	.	.	32g\JJJ	.	.
=12	=12	=12	=12	=12	=12	=12	=12
8c/L	4.C\	.	.	8ee/L	32ee\LLL	.	rfz
.	.	.	.	.	32b-X\	.	.
.	.	.	.	.	32g\	.	.
.	.	.	.	.	32b-\JJJ	.	.
8B-X/	.	.	.	8dd/	32dd\LLL	.	.
.	.	.	.	.	32b-\	.	.
.	.	.	.	.	32g\	.	.
.	.	.	.	.	32b-\JJJ	.	.
8G/J	.	.	.	8ee/J	32ee\LLL	.	.
.	.	.	.	.	32b-\	.	.
.	.	.	.	.	32g\	.	.
.	.	.	.	.	32b-\JJJ	.	.
=13	=13	=13	=13	=13	=13	=13	=13
8c/L	4.C\	.	.	4ff/	32ff\LLL	.	.
.	.	.	.	.	32a\	.	.
.	.	.	.	.	32f\	.	.
.	.	.	.	.	32a\JJJ	.	.
8A/	.	.	.	.	32f\LLL	.	.
.	.	.	.	.	32a\	.	.
.	.	.	.	.	32f\	.	.
.	.	.	.	.	32a\JJJ	.	.
8A/J	.	.	.	8ff/	32ff\LLL	.	.
.	.	.	.	.	32a\	.	.
.	.	.	.	.	32f\	.	.
.	.	.	.	.	32a\JJJ	.	.
!!LO:LB:g=original
=14	=14	=14	=14	=14	=14	=14	=14
8Bn/L	4.C\	.	.	8ff/L	32ff\LLL	.	.
.	.	.	.	.	32bn\	.	.
.	.	.	.	.	32g\	.	.
.	.	.	.	.	32b\JJJ	.	.
8G/	.	.	.	8gg/	32gg\LLL	.	.
.	.	.	.	.	32b\	.	.
.	.	.	.	.	32g\	.	.
.	.	.	.	.	32b\JJJ	.	.
8G/J	.	.	.	8ff/J	32ff\LLL	.	.
.	.	.	.	.	32b\	.	.
.	.	.	.	.	32g\	.	.
.	.	.	.	.	32b\JJJ	.	.
=15	=15	=15	=15	=15	=15	=15	=15
8c/L	4.C\	.	.	4ee/	32ee\LLL	.	.
.	.	.	.	.	32cc\	.	.
.	.	.	.	.	32g\	.	.
.	.	.	.	.	32cc\JJJ	.	.
8G/	.	.	.	.	32g\LLL	.	.
.	.	.	.	.	32cc\	.	.
.	.	.	.	.	32g\	.	.
.	.	.	.	.	32cc\JJJ	.	.
8G/J	.	.	.	8ee/	32ee\LLL	.	.
.	.	.	.	.	32cc\	.	.
.	.	.	.	.	32g\	.	.
.	.	.	.	.	32cc\JJJ	.	.
=16	=16	=16	=16	=16	=16	=16	=16
8c/L	4.C\	.	.	8ee/L	32ee\LLL	.	.
.	.	.	.	.	32b-X\	.	.
.	.	.	.	.	32g\	.	.
.	.	.	.	.	32b-\JJJ	.	.
8B-X/	.	.	.	8dd/	32dd\LLL	.	.
.	.	.	.	.	32b-\	.	.
.	.	.	.	.	32g\	.	.
.	.	.	.	.	32a\JJJ	.	.
8G/J	.	.	.	8ee/J	32ee\LLL	.	.
.	.	.	.	.	32b-\	.	.
.	.	.	.	.	32g\	.	.
.	.	.	.	.	32b-\JJJ	.	.
=17	=17	=17	=17	=17	=17	=17	=17
8c/L	4.C\	.	.	4ff/	32ff\LLL	.	.
.	.	.	.	.	32a\	.	.
.	.	.	.	.	32f\	.	.
.	.	.	.	.	32a\JJJ	.	.
8A/	.	.	.	.	32f\LLL	.	.
.	.	.	.	.	32a\	.	.
.	.	.	.	.	32f\	.	.
.	.	.	.	.	32a\JJJ	.	.
8A/J	.	.	.	8ff/	32ff\LLL	.	.
.	.	.	.	.	32a\	.	.
.	.	.	.	.	32f\	.	.
.	.	.	.	.	32a\JJJ	.	.
!!LO:LB:g=original
=18	=18	=18	=18	=18	=18	=18	=18
8Bn/L	4.C\	.	.	8ff/L	32ff\LLL	.	.
.	.	.	.	.	32bn\	.	.
.	.	.	.	.	32g\	.	.
.	.	.	.	.	32b\JJJ	.	.
8G/	.	.	.	8aa/	32aa\LLL	.	.
.	.	.	.	.	32b\	.	.
.	.	.	.	.	32g\	.	.
.	.	.	.	.	32b\JJJ	.	.
8G/J	.	.	.	8gg/J	32gg\LLL	.	.
.	.	.	.	.	32b\	.	.
.	.	.	.	.	32g\	.	.
.	.	.	.	.	32b\JJJ	.	.
=19	=19	=19	=19	=19	=19	=19	=19
8c/L	4.C\	.	.	4ee/	32ee\LLL	.	.
.	.	.	.	.	32cc\	.	.
.	.	.	.	.	32g\	.	.
.	.	.	.	.	32cc\JJJ	.	.
8G/	.	.	.	.	32g\LLL	.	.
.	.	.	.	.	32cc\	.	.
.	.	.	.	.	32g\	.	.
.	.	.	.	.	32cc\JJJ	.	.
8G/J	.	.	.	8ee/	32ee\LLL	.	.
.	.	.	.	.	32cc\	.	.
.	.	.	.	.	32g\	.	.
.	.	.	.	.	32cc\JJJ	.	.
=20	=20	=20	=20	=20	=20	=20	=20
8B/L	4.C\	.	.	8dd/L	32dd\LLL	.	.
.	.	.	.	.	32g\	.	.
.	.	.	.	.	32f\	.	.
.	.	.	.	.	32g\JJJ	.	.
8G/	.	.	.	8ee/	32ee\LLL	.	.
.	.	.	.	.	32g\	.	.
.	.	.	.	.	32f\	.	.
.	.	.	.	.	32g\JJJ	.	.
8G/J	.	.	.	8dd/J	32dd\LLL	.	.
.	.	.	.	.	32g\	.	.
.	.	.	.	.	32f\	.	.
.	.	.	.	.	32g\JJJ	.	.
=21	=21	=21	=21	=21	=21	=21	=21
8c/L	4.C\	.	.	8cc/L	32cc\LLL	.	.
.	.	.	.	.	32g\	.	.
.	.	.	.	.	32e\	.	.
.	.	.	.	.	32g\JJJ	.	.
8G/	.	.	.	8b/	32b\LLL	.	.
.	.	.	.	.	32g\	.	.
.	.	.	.	.	32e\	.	.
.	.	.	.	.	32g\JJJ	.	.
8G/J	.	.	.	8a/J	32a\LLL	.	.
.	.	.	.	.	32g\	.	.
.	.	.	.	.	32e\	.	.
.	.	.	.	.	32g\JJJ	.	.
!!LO:LB:g=original
=22	=22	=22	=22	=22	=22	=22	=22
8B/L	4.C\	.	.	8g/L	32g\LLL	.	.
.	.	.	.	.	32f\	.	.
.	.	.	.	.	32d\	.	.
.	.	.	.	.	32f\JJJ	.	.
8G/	.	.	.	8a-X^/	32a-\LLL	.	.
.	.	.	.	.	32f\	.	.
.	.	.	.	.	32d\	.	.
.	.	.	.	.	32f\JJJ	.	.
8G/J	.	.	.	8g/J	32g\LLL	.	.
.	.	.	.	.	32f\	.	.
.	.	.	.	.	32d\	.	.
.	.	.	.	.	32f\JJJ	.	.
=23	=23	=23	=23	=23	=23	=23	=23
8c/L	4.C\	.	.	4cc/	32cc\LLL	.	.
.	.	.	.	.	32g\	.	.
.	.	.	.	.	32e\	.	.
.	.	.	.	.	32g\JJJ	.	.
8G/	.	.	.	.	32e\LLL	.	.
.	.	.	.	.	32g\	.	.
.	.	.	.	.	32e\	.	.
.	.	.	.	.	32g\JJJ	.	.
8G/J	.	.	.	8cc#X/	32cc#\LLL	.	.
.	.	.	.	.	32g\	.	.
.	.	.	.	.	32e\	.	.
.	.	.	.	.	32g\JJJ	.	.
=24	=24	=24	=24	=24	=24	=24	=24
8B/L	4.C\	.	.	8dd/L	32dd\LLL	.	.
.	.	.	.	.	32g\	.	.
.	.	.	.	.	32f\	.	.
.	.	.	.	.	32g\JJJ	.	.
8G/	.	.	.	8ee/	32ee\LLL	.	.
.	.	.	.	.	32g\	.	.
.	.	.	.	.	32f\	.	.
.	.	.	.	.	32g\JJJ	.	.
8G/J	.	.	.	8ff/J	32ff\LLL	.	.
.	.	.	.	.	32g\	.	.
.	.	.	.	.	32f\	.	.
.	.	.	.	.	32g\JJJ	.	.
=25	=25	=25	=25	=25	=25	=25	=25
8c/L	4.C\	.	.	4rffyy	32gg\LLL	.	.
.	.	.	.	.	32g\	.	.
.	.	.	.	.	32e\	.	.
.	.	.	.	.	32g\JJJ	.	.
8G/	.	.	.	.	32e\LLL	.	.
.	.	.	.	.	32g\	.	.
.	.	.	.	.	32e\	.	.
.	.	.	.	.	32g\JJJ	.	.
8G/J	.	.	.	8ee/	32ee\LLL	.	.
.	.	.	.	.	32g\	.	.
.	.	.	.	.	32e\	.	.
.	.	.	.	.	32g\JJJ	.	.
=26	=26	=26	=26	=26	=26	=26	=26
8B/L	4.C\	.	.	8dd/L	32dd\LLL	.	.
.	.	.	.	.	32g\	.	.
.	.	.	.	.	32f\	.	.
.	.	.	.	.	32g\JJJ	.	.
8G/	.	.	.	8ee/	32ee\LLL	.	.
.	.	.	.	.	32g\	.	.
.	.	.	.	.	32f\	.	.
.	.	.	.	.	32g\JJJ	.	.
8G/J	.	.	.	8dd/J	32dd\LLL	.	.
.	.	.	.	.	32g\	.	.
.	.	.	.	.	32f\	.	.
.	.	.	.	.	32g\JJJ	.	.
*v	*v	*	*	*	*	*	*
!!LO:PB:g=original
=27	=27	=27	=27	=27	=27	=27
4C\ 4c\	.	.	4cc/	32cc\LLL	.	.
.	.	.	.	32g\	.	.
.	.	.	.	32e\	.	.
.	.	.	.	32g\JJJ	.	.
.	.	.	.	32e\LLL	.	.
.	.	.	.	32g\	.	.
.	.	.	.	32e\	.	.
.	.	.	.	32g\JJJ	.	.
8r	.	.	8cc/	32cc\LLL	.	.
.	.	.	.	32g\	.	.
.	.	.	.	32e\	.	.
.	.	.	.	32g\JJJ	.	.
=28	=28	=28	=28	=28	=28	=28
*	*	*	*ped	*	*	*
!	!	!	!	!	!	!LO:DY:rj
4GGG/ 4GG/	.	.	4gg/	32gg\LLL	.	f
.	.	.	.	32b\	.	.
.	.	.	.	32g\	.	.
.	.	.	.	32b\JJJ	.	.
.	.	.	.	32g\LLL	.	.
.	.	.	.	32b\	.	.
.	.	.	.	32g\	.	.
.	.	.	.	32b\JJJ	.	.
8qF#X/	.	.	.	.	.	.
8G^\	.	.	8gg/	32gg\LLL	.	.
.	.	.	.	32b\ 32dd\	.	.
.	.	.	.	32g\ 32b\	.	.
.	.	.	.	32b\JJJ 32dd\	.	.
=29	=29	=29	=29	=29	=29	=29
4GGG/ 4GG/	.	.	4gg/	32gg\LLL	.	f
.	.	.	.	32cc\	.	.
.	.	.	.	32a\	.	.
.	.	.	.	32cc\JJJ	.	.
.	.	.	.	32a\LLL	.	.
.	.	.	.	32cc\	.	.
.	.	.	.	32a\	.	.
.	.	.	.	32cc\JJJ	.	.
8qF#X/	.	.	.	.	.	.
8G^\	.	.	8gg/	32gg\LLL	.	.
.	.	.	.	32cc\	.	.
.	.	.	.	32a\	.	.
.	.	.	.	32cc\JJJ	.	.
=30	=30	=30	=30	=30	=30	=30
4GGG/ 4GG/	.	.	4gg/	32gg\LLL	.	f
.	.	.	.	32dd\	.	.
.	.	.	.	32b\	.	.
.	.	.	.	32dd\JJJ	.	.
.	.	.	.	32b\LLL	.	.
.	.	.	.	32dd\	.	.
.	.	.	.	32b\	.	.
.	.	.	.	32dd\JJJ	.	.
8qF#X/	.	.	.	.	.	.
8G^\	.	.	8gg/	32gg\LLL	.	.
.	.	.	.	32dd\	.	.
.	.	.	.	32b\	.	.
.	.	.	.	32dd\JJJ	.	.
!!LO:LB:g=original
=31	=31	=31	=31	=31	=31	=31
4GGG/ 4GG/	.	.	4gg/	32gg\LLL	.	f
.	.	.	.	32ee-X\	.	.
.	.	.	.	32cc\	.	.
.	.	.	.	32ee-\JJJ	.	.
.	.	.	.	32cc\LLL	.	.
.	.	.	.	32ee-\	.	.
.	.	.	.	32cc\	.	.
.	.	.	.	32ee-\JJJ	.	.
8qF#X/	.	.	.	.	.	.
8G^\	.	.	8gg/	32gg\LLL	.	.
.	.	.	.	32ee-\	.	.
.	.	.	.	32cc\	.	.
.	.	.	.	32ee-\JJJ	.	.
=32	=32	=32	=32	=32	=32	=32
4GGG/ 4GG/	.	.	4gg/	32gg\LLL	.	.
.	.	.	.	32ff\	.	.
.	.	.	.	32dd\	.	.
.	.	.	.	32ff\JJJ	.	.
.	.	.	.	32dd\LLL	.	.
.	.	.	.	32ff\	.	.
.	.	.	.	32dd\	.	.
.	.	.	.	32ff\JJJ	.	.
8qF#X/	.	.	.	.	.	.
8G^\	.	.	8gg/	32gg\LLL	.	.
.	.	.	.	32ff\	.	.
.	.	.	.	32dd\	.	.
.	.	.	.	32ff\JJJ	.	.
=33	=33	=33	=33	=33	=33	=33
4GGG/ 4GG/	.	.	4gg/	32gg\LLL	.	.
.	.	.	.	32ee-X\	.	.
.	.	.	.	32cc\	.	.
.	.	.	.	32ee-\JJJ	.	.
.	.	.	.	32cc\LLL	.	.
.	.	.	.	32ee-\	.	.
.	.	.	.	32cc\	.	.
.	.	.	.	32ee-\JJJ	.	.
8qF#X/	.	.	.	.	.	.
8G^\	.	.	8gg/	32gg\LLL	.	.
.	.	.	.	32ee-\	.	.
.	.	.	.	32cc\	.	.
.	.	.	.	32ee-\JJJ	.	.
=34	=34	=34	=34	=34	=34	=34
8GG/L 8G/	.	.	8ff#X/L	32ff#\LLL	.	.
.	.	.	.	32ee-X\	.	.
!	!	!	!	!LO:TX:a:t=di-mi-nu-en-do	!	!
.	.	.	.	32cc\	.	.
.	.	.	.	32ee-\JJJ	.	.
8GG/ 8G/	.	.	8ff#/	32ff#\LLL	.	.
.	.	.	.	32dd\	.	.
.	.	.	.	32cc\	.	.
.	.	.	.	32dd\JJJ	.	.
8GG/J 8G/	.	.	8ff#/J	32ff#\LLL	.	.
.	.	.	.	32ee-\	.	.
.	.	.	.	32cc\	.	.
.	.	.	.	32ee-\JJJ	.	.
!!LO:LB:g=original
=35	=35	=35	=35	=35	=35	=35
4GG/ 4G/	.	.	4rffyy	32gg\LLL	.	.
.	.	.	.	32dd\	.	.
.	.	.	.	32b\	.	.
.	.	.	.	32dd\JJJ	.	.
.	.	.	.	32b\LLL	.	.
.	.	.	.	32dd\	.	.
.	.	.	.	32b\	.	.
.	.	.	.	32dd\JJJ	.	.
!	!	!	!LO:TX:b:t=a tempo	!	!	!
8r	.	.	8gg/	32gg\LLL	.	.
.	.	.	.	32dd\	.	.
.	.	.	.	32b\	.	.
.	.	.	.	32dd\JJJ	.	.
=36	=36	=36	=36	=36	=36	=36
*^	*	*	*	*	*	*
8B/L	4.C\	.	.	8dd/L	32dd\LLL	.	.
.	.	.	.	.	32g\	.	.
.	.	.	.	.	32f\	.	.
.	.	.	.	.	32g\JJJ	.	.
8G/	.	.	.	8ee/	32ee\LLL	.	.
.	.	.	.	.	32g\	.	.
.	.	.	.	.	32f\	.	.
.	.	.	.	.	32g\JJJ	.	.
8G/J	.	.	.	8dd/J	32dd\LLL	.	.
.	.	.	.	.	32g\	.	.
.	.	.	.	.	32f\	.	.
.	.	.	.	.	32g\JJJ	.	.
=37	=37	=37	=37	=37	=37	=37	=37
8c/L	4.C\	.	.	8cc/L	32cc\LLL	.	.
.	.	.	.	.	32g\	.	.
.	.	.	.	.	32e\	.	.
.	.	.	.	.	32g\JJJ	.	.
8G/	.	.	.	8b/	32b\LLL	.	.
.	.	.	.	.	32g\	.	.
.	.	.	.	.	32e\	.	.
.	.	.	.	.	32g\JJJ	.	.
8G/J	.	.	.	8a/J	32a\LLL	.	.
.	.	.	.	.	32g\	.	.
.	.	.	.	.	32e\	.	.
.	.	.	.	.	32g\JJJ	.	.
=38	=38	=38	=38	=38	=38	=38	=38
8B/L	4.C\	.	.	8g/L	32g\LLL	.	.
.	.	.	.	.	32f\	.	.
.	.	.	.	.	32d\	.	.
.	.	.	.	.	32f\JJJ	.	.
8G/	.	.	.	8a/	32a\LLL	.	.
.	.	.	.	.	32f\	.	.
.	.	.	.	.	32d\	.	.
.	.	.	.	.	32f\JJJ	.	.
8d/J	.	.	.	8b/J	32b\LLL	.	.
.	.	.	.	.	32f\	.	.
.	.	.	.	.	32d\	.	.
.	.	.	.	.	32f\JJJ	.	.
!!LO:LB:g=original
=39	=39	=39	=39	=39	=39	=39	=39
8d/L	4.C\	.	.	4cc/	32cc\LLL	.	.
.	.	.	.	.	32g\	.	.
.	.	.	.	.	32e\	.	.
.	.	.	.	.	32g\JJJ	.	.
8G/	.	.	.	.	32e\LLL	.	.
.	.	.	.	.	32g\	.	.
.	.	.	.	.	32e\	.	.
.	.	.	.	.	32g\JJJ	.	.
8G/J	.	.	.	8cc#X/	32cc#\LLL	.	.
.	.	.	.	.	32g\	.	.
.	.	.	.	.	32e\	.	.
.	.	.	.	.	32g\JJJ	.	.
=40	=40	=40	=40	=40	=40	=40	=40
8B/L	4.C\	.	.	8dd/L	32dd\LLL	.	.
.	.	.	.	.	32g\	.	.
.	.	.	.	.	32f\	.	.
.	.	.	.	.	32g\JJJ	.	.
8G/	.	.	.	8ee/	32ee\LLL	.	.
.	.	.	.	.	32g\	.	.
.	.	.	.	.	32f\	.	.
.	.	.	.	.	32g\JJJ	.	.
8G/J	.	.	.	8ff/J	32ff\LLL	.	.
.	.	.	.	.	32g\	.	.
.	.	.	.	.	32f\	.	.
.	.	.	.	.	32g\JJJ	.	.
=41	=41	=41	=41	=41	=41	=41	=41
8c/L	4.C\	.	.	4gg/	32gg\LLL	.	.
.	.	.	.	.	32g\	.	.
.	.	.	.	.	32e\	.	.
.	.	.	.	.	32g\JJJ	.	.
8G/	.	.	.	.	32e\LLL	.	.
.	.	.	.	.	32g\	.	.
.	.	.	.	.	32e\	.	.
.	.	.	.	.	32g\JJJ	.	.
8G/J	.	.	.	8ee/	32ee\LLL	.	.
.	.	.	.	.	32g\	.	.
.	.	.	.	.	32e\	.	.
.	.	.	.	.	32g\JJJ	.	.
=42	=42	=42	=42	=42	=42	=42	=42
8B/L	4.C\	.	.	8dd/L	32dd\LLL	.	.
.	.	.	.	.	32g\	.	.
.	.	.	.	.	32f\	.	.
.	.	.	.	.	32g\JJJ	.	.
8G/	.	.	.	8ee/	32ee\LLL	.	.
.	.	.	.	.	32g\	.	.
.	.	.	.	.	32f\	.	.
.	.	.	.	.	32g\JJJ	.	.
8G/J	.	.	.	8dd/J	32dd\LLL	.	.
.	.	.	.	.	32g\	.	.
.	.	.	.	.	32f\	.	.
.	.	.	.	.	32g\JJJ	.	.
*v	*v	*	*	*	*	*	*
=43	=43	=43	=43	=43	=43	=43
!	!	!	!	!	!	!LO:LB:g=original
4C\ 4c\	.	.	4cc/	32cc\LLL	.	p
.	.	.	.	32g\	.	.
.	.	.	.	32e\	.	.
.	.	.	.	32g\JJJ	.	.
!	!	!	!LO:TX:a:t=sti-re-cia-to	!	!	!
.	.	.	.	32e\LLL	.	.
.	.	.	.	32g\	.	.
.	.	.	.	32e\	.	.
.	.	.	.	32g\JJJ	.	.
8C\ 8c\	.	.	8cc/	32cc\LLL	.	.
.	.	.	.	32g\	.	.
.	.	.	.	32e\	.	.
.	.	.	.	32g\JJJ	.	.
=44	=44	=44	=44	=44	=44	=44
4BB\ 4B\	.	.	4cc/	32cc\LLL	.	.
.	.	.	.	32g\	.	.
.	.	.	.	32e\	.	.
.	.	.	.	32g\JJJ	.	.
.	.	.	.	32e\LLL	.	.
.	.	.	.	32g\	.	.
.	.	.	.	32e\	.	.
.	.	.	.	32g\JJJ	.	.
8BB\ 8B\	.	.	8cc/	32cc\LLL	.	.
.	.	.	.	32g\	.	.
.	.	.	.	32e\	.	.
.	.	.	.	32g\JJJ	.	.
=45	=45	=45	=45	=45	=45	=45
4AA\ 4A\	.	.	8cc/L	32cc\LLL	.	.
.	.	.	.	32f#X\	.	.
.	.	.	.	32d\	.	.
.	.	.	.	32f#\JJJ	.	.
.	.	.	8b/	32b\LLL	.	.
.	.	.	.	32f#\	.	.
.	.	.	.	32d\	.	.
.	.	.	.	32f#\JJJ	.	.
8AA\ 8A\	.	.	8cc/J	32cc\LLL	.	.
.	.	.	.	32f#\	.	.
.	.	.	.	32d\	.	.
.	.	.	.	32f#\JJJ	.	.
=46	=46	=46	=46	=46	=46	=46
4FF#X\ 4F#X\	.	.	8ee/L	32ee\LLL	.	.
.	.	.	.	32a\	.	.
.	.	.	.	32d\	.	.
.	.	.	.	32a\JJJ	.	.
.	.	.	8dd/	32dd\LLL	.	.
.	.	.	.	32a\	.	.
.	.	.	.	32d\	.	.
.	.	.	.	32a\JJJ	.	.
8FF#\ 8F#\	.	.	8cc/J	32cc\LLL	.	.
.	.	.	.	32a\	.	.
.	.	.	.	32d\	.	.
.	.	.	.	32a\JJJ	.	.
=47	=47	=47	=47	=47	=47	=47
!	!	!	!LO:TX:b:t=cre-scen-do	!	!	!
4GG\ 4G\	.	.	8b/L	32b\LLL	.	.
.	.	.	.	32g\	.	.
.	.	.	.	32d\	.	.
.	.	.	.	32g\JJJ	.	.
.	.	.	8gg/	32gg\LLL	.	.
.	.	.	.	32dd\	.	.
.	.	.	.	32b\	.	.
.	.	.	.	32dd\JJJ	.	.
8GG\ 8G\	.	.	8bb/J	32bb\LLL	.	.
.	.	.	.	32gg\	.	.
.	.	.	.	32dd\	.	.
.	.	.	.	32gg\JJJ	.	.
!!LO:LB:g=original
=48	=48	=48	=48	=48	=48	=48
4CC/ 4C/	.	.	8ddd/L	32ddd\LLL	.	.
.	.	.	.	32ee\	.	.
.	.	.	.	32cc\	.	.
.	.	.	.	32ee\JJJ	.	.
.	.	.	8ccc/	32ccc\LLL	.	.
.	.	.	.	32ee\	.	.
.	.	.	.	32cc\	.	.
.	.	.	.	32ee\JJJ	.	.
8CC/ 8C/	.	.	8aa/J	32aa\LLL	.	.
.	.	.	.	32ee\	.	.
.	.	.	.	32cc\	.	.
.	.	.	.	32ee\JJJ	.	.
=49	=49	=49	=49	=49	=49	=49
8DD/L 8D/	.	.	8gg/L	32gg\LLL	.	f
.	.	.	.	32dd\	.	.
.	.	.	.	32b\	.	.
.	.	.	.	32dd\JJJ	.	.
8EE-X/ 8E-X/	.	.	8gg/	32gg\LLL	.	.
.	.	.	.	32b-X\	.	.
.	.	.	.	32g\	.	.
.	.	.	.	32b-\JJJ	.	.
8CC#X/J 8C#X/	.	.	8gg/J	32gg\LLL	.	.
.	.	.	.	32b-\	.	.
.	.	.	.	32g\	.	.
.	.	.	.	32b-\JJJ	.	.
=50	=50	=50	=50	=50	=50	=50
8DD`/L 8D/	.	.	8gg/L	32gg\LLL	.	.
.	.	.	.	32bn\	.	.
.	.	.	.	32g\	.	.
.	.	.	.	32b\JJJ	.	.
8DD`/ 8D/	.	.	8aa/	32aa\LLL	.	.
.	.	.	.	32cc\	.	.
.	.	.	.	32a\	.	.
.	.	.	.	32cc\JJJ	.	.
8DD`/J 8D/	.	.	8ff#X/J	32ff#\LLL	.	.
.	.	.	.	32cc\	.	.
.	.	.	.	32a\	.	.
.	.	.	.	32cc\JJJ	.	.
=51	=51	=51	=51	=51	=51	=51
4GG/	.	.	4gg/	32gg\LLL	.	.
.	.	.	.	32b\	.	.
.	.	.	.	32g\	.	.
.	.	.	.	32b\JJJ	.	.
.	.	.	.	32g\LLL	.	.
.	.	.	.	32b\	.	.
.	.	.	.	32g\	.	.
.	.	.	.	32b\JJJ	.	.
8r	.	.	8gg/	32gg\LLL	.	.
.	.	.	.	32dd\	.	.
.	.	.	.	32b\	.	.
.	.	.	.	32dd\JJJ	.	.
!LO:TX:b:t=3043	!	!	!	!	!	!
!!LO:PB:g=original
=52	=52	=52	=52	=52	=52	=52
*clefG2	*	*	*	*	*	*
*^	*	*	*	*	*	*
32G/LLL	8G^\	.	.	8aa/L	32aa\LLL	.	.
32d/	.	.	.	.	32dd\	.	.
32f#X/	.	.	.	.	32cc\	.	.
32d/JJJ	.	.	.	.	32dd\JJJ	.	.
32f#/LLL	8rc	.	.	8bb/	32bb\LLL	.	.
32d/	.	.	.	.	32dd\	.	.
32f#/	.	.	.	.	32cc\	.	.
32d/JJJ	.	.	.	.	32dd\JJJ	.	.
32G/LLL	8G^\	.	.	8aa/J	32aa\LLL	.	.
32d/	.	.	.	.	32dd\	.	.
32f#/	.	.	.	.	32cc\	.	.
32d/JJJ	.	.	.	.	32dd\JJJ	.	.
=53	=53	=53	=53	=53	=53	=53	=53
32G/LLL	8G^\	.	.	8gg/L	32gg\LLL	.	.
32d/	.	.	.	.	32dd\	.	.
32g/	.	.	.	.	32b\	.	.
32d/JJJ	.	.	.	.	32dd\JJJ	.	.
32g/LLL	8rc	.	.	8rffyy	32ff#X\LLL	.	.
32d/	.	.	.	.	32dd\	.	.
32g/	.	.	.	.	32b\	.	.
32d/JJJ	.	.	.	.	32dd\JJJ	.	.
32G/LLL	8G^\	.	.	8ee/J	32ee\LLL	.	.
32d/	.	.	.	.	32dd\	.	.
32g/	.	.	.	.	32b\	.	.
32d/JJJ	.	.	.	.	32dd\JJJ	.	.
=54	=54	=54	=54	=54	=54	=54	=54
32G/LLL	8G\	.	.	8dd/L	32dd\LLL	.	.
32d/	.	.	.	.	32cc\	.	.
32f#X/	.	.	.	.	32a\	.	.
32d/JJJ	.	.	.	.	32cc\JJJ	.	.
32f#/LLL	8rc	.	.	8ee/	32ee\LLL	.	.
32d/	.	.	.	.	32cc\	.	.
32f#/	.	.	.	.	32a\	.	.
32d/JJJ	.	.	.	.	32cc\JJJ	.	.
32G/LLL	8G\	.	.	8dd/J	32dd\LLL	.	.
32d/	.	.	.	.	32cc\	.	.
32f#/	.	.	.	.	32a\	.	.
32d/JJJ	.	.	.	.	32cc\JJJ	.	.
=55	=55	=55	=55	=55	=55	=55	=55
32G/LLL	8G\	.	.	8gg/	32gg\LLL	.	.
32d/	.	.	.	.	32dd\	.	.
32g/	.	.	.	.	32b\	.	.
32d/JJJ	.	.	.	.	32dd\JJJ	.	.
32g/LLL	8rc	.	.	8rffyy	32b\LLL	.	.
32d/	.	.	.	.	32dd\	.	.
32g/	.	.	.	.	32b\	.	.
32d/JJJ	.	.	.	.	32dd\JJJ	.	.
32G/LLL	8G\	.	.	8gg#X/	32gg#\LLL	.	.
32d/	.	.	.	.	32dd\	.	.
32g/	.	.	.	.	32b\	.	.
32d/JJJ	.	.	.	.	32dd\JJJ	.	.
!!LO:LB:g=original
=56	=56	=56	=56	=56	=56	=56	=56
32G/LLL	8G\	.	.	8aa/L	32aa\LLL	.	.
32d/	.	.	.	.	32dd\	.	.
32f#X/	.	.	.	.	32cc\	.	.
32d/JJJ	.	.	.	.	32dd\JJJ	.	.
32f#/LLL	8rc	.	.	8bb/	32bb\LLL	.	.
32d/	.	.	.	.	32dd\	.	.
32f#/	.	.	.	.	32cc\	.	.
32d/JJJ	.	.	.	.	32dd\JJJ	.	.
32G/LLL	8G\	.	.	8ccc/J	32ccc\LLL	.	.
32d/	.	.	.	.	32dd\	.	.
32f#/	.	.	.	.	32cc\	.	.
32d/JJJ	.	.	.	.	32dd\JJJ	.	.
=57	=57	=57	=57	=57	=57	=57	=57
32G/LLL	8G\	.	.	4ddd/	32ddd\LLL	.	.
32d/	.	.	.	.	32dd\	.	.
32g/	.	.	.	.	32b\	.	.
32d/JJJ	.	.	.	.	32dd\JJJ	.	.
32g/LLL	8rc	.	.	.	32b\LLL	.	.
32d/	.	.	.	.	32dd\	.	.
32g/	.	.	.	.	32b\	.	.
32d/JJJ	.	.	.	.	32dd\JJJ	.	.
32G/LLL	8G\	.	.	8bb/	32bb\LLL	.	.
32d/	.	.	.	.	32dd\	.	.
32g/	.	.	.	.	32b\	.	.
32d/JJJ	.	.	.	.	32dd\JJJ	.	.
=58	=58	=58	=58	=58	=58	=58	=58
32G/LLL	8G\	.	.	8aa/L	32aa\LLL	.	.
32d/	.	.	.	.	32dd\	.	.
32f#X/	.	.	.	.	32cc\	.	.
32d/JJJ	.	.	.	.	32dd\JJJ	.	.
32f#/LLL	8rc	.	.	8bb/	32bb\LLL	.	.
32d/	.	.	.	.	32dd\	.	.
32f#/	.	.	.	.	32cc\	.	.
32d/JJJ	.	.	.	.	32dd\JJJ	.	.
32G/LLL	8G\	.	.	8aa/J	32aa\LLL	.	.
32d/	.	.	.	.	32dd\	.	.
32f#/	.	.	.	.	32cc\	.	.
32d/JJJ	.	.	.	.	32dd\JJJ	.	.
=59	=59	=59	=59	=59	=59	=59	=59
32G/LLL	8G\	.	.	4gg/	32gg\LLL	.	.
32d/	.	.	.	.	32dd\	.	.
32g/	.	.	.	.	32b\	.	.
32d/JJJ	.	.	.	.	32dd\JJJ	.	.
32g/LLL	8rc	.	.	.	32b\LLL	.	.
32d/	.	.	.	.	32dd\	.	.
32g/	.	.	.	.	32b\	.	.
32d/JJJ	.	.	.	.	32dd\JJJ	.	.
8G/	8G\	.	.	8gg/	32gg\LLL	.	.
.	.	.	.	.	32dd\	.	.
!	!	!	!	!LO:TX:b:t=espres.	!	!	!
.	.	.	.	.	32b\	.	.
.	.	.	.	.	32dd\JJJ	.	.
=60	=60	=60	=60	=60	=60	=60	=60
*clefF4	*	*	*	*	*	*	*
8d#X/L	4.E\	.	.	8ff#X/L	32ff#\LLL	.	.
.	.	.	.	.	32b\	.	.
.	.	.	.	.	32a\	.	.
.	.	.	.	.	32b\JJJ	.	.
8B/	.	.	.	8gg^/	32gg\LLL	.	.
.	.	.	.	.	32b\	.	.
.	.	.	.	.	32a\	.	.
.	.	.	.	.	32b\JJJ	.	.
8B/J	.	.	.	8ff#/J	32ff#\LLL	.	.
.	.	.	.	.	32b\	.	.
.	.	.	.	.	32a\	.	.
.	.	.	.	.	32b\JJJ	.	.
=61	=61	=61	=61	=61	=61	=61	=61
8e/L	4.E\	.	.	8ee/L	32ee\LLL	.	.
.	.	.	.	.	32b\	.	.
.	.	.	.	.	32g\	.	.
.	.	.	.	.	32b\JJJ	.	.
8B/	.	.	.	8ddn/	32ddn\LLL	.	.
.	.	.	.	.	32b\	.	.
.	.	.	.	.	32g\	.	.
.	.	.	.	.	32b\JJJ	.	.
8B/J	.	.	.	8cc/J	32cc\LLL	.	.
.	.	.	.	.	32b\	.	.
.	.	.	.	.	32g\	.	.
.	.	.	.	.	32b\JJJ	.	.
=62	=62	=62	=62	=62	=62	=62	=62
8d#X/L	4.E\	.	.	8b/L	32b\LLL	.	.
.	.	.	.	.	32a\	.	.
.	.	.	.	.	32f#X\	.	.
.	.	.	.	.	32a\JJJ	.	.
8B/	.	.	.	8cc^/	32cc\LLL	.	.
.	.	.	.	.	32a\	.	.
.	.	.	.	.	32f#\	.	.
.	.	.	.	.	32a\JJJ	.	.
8B/J	.	.	.	8b/J	32b\LLL	.	.
.	.	.	.	.	32a\	.	.
.	.	.	.	.	32f#\	.	.
.	.	.	.	.	32a\JJJ	.	.
=63	=63	=63	=63	=63	=63	=63	=63
8e/L	4.E\	.	.	4ee/	32ee\LLL	.	.
.	.	.	.	.	32b\	.	.
.	.	.	.	.	32g\	.	.
.	.	.	.	.	32b\JJJ	.	.
8B/	.	.	.	.	32g\LLL	.	.
.	.	.	.	.	32b\	.	.
.	.	.	.	.	32g\	.	.
.	.	.	.	.	32b\JJJ	.	.
8B/J	.	.	.	8ee/	32ee\LLL	.	.
.	.	.	.	.	32b\	.	.
.	.	.	.	.	32g\	.	.
.	.	.	.	.	32b\JJJ	.	.
=64	=64	=64	=64	=64	=64	=64	=64
8d#X/L	4.E\	.	.	8ff#X/L	32ff#\LLL	.	.
.	.	.	.	.	32b\	.	.
.	.	.	.	.	32a\	.	.
.	.	.	.	.	32b\JJJ	.	.
8B/	.	.	.	8gg^/	32gg\LLL	.	.
.	.	.	.	.	32b\	.	.
.	.	.	.	.	32a\	.	.
.	.	.	.	.	32b\JJJ	.	.
8B/J	.	.	.	8ff#/J	32ff#\LLL	.	.
.	.	.	.	.	32b\	.	.
.	.	.	.	.	32a\	.	.
.	.	.	.	.	32b\JJJ	.	.
=65	=65	=65	=65	=65	=65	=65	=65
8e/L	4.E\	.	.	8ee/L	32ee\LLL	.	.
.	.	.	.	.	32b\	.	.
.	.	.	.	.	32g\	.	.
.	.	.	.	.	32b\JJJ	.	.
8B/	.	.	.	8ddn/	32dd\LLL	.	.
.	.	.	.	.	32b\	.	.
.	.	.	.	.	32g\	.	.
.	.	.	.	.	32b\JJJ	.	.
8B/J	.	.	.	8cc/J	32cc\LLL	.	.
.	.	.	.	.	32b\	.	.
.	.	.	.	.	32g\	.	.
.	.	.	.	.	32b\JJJ	.	.
=66	=66	=66	=66	=66	=66	=66	=66
8d#X/L	4.E\	.	.	8b/L	32b\LLL	.	.
.	.	.	.	.	32a\	.	.
.	.	.	.	.	32f#X\	.	.
.	.	.	.	.	32a\JJJ	.	.
8B/	.	.	.	8cc^/	32cc\LLL	.	.
.	.	.	.	.	32a\	.	.
.	.	.	.	.	32f#\	.	.
.	.	.	.	.	32a\JJJ	.	.
8B/J	.	.	.	8b/J	32b\LLL	.	.
.	.	.	.	.	32a\	.	.
.	.	.	.	.	32f#\	.	.
.	.	.	.	.	32a\JJJ	.	.
=67	=67	=67	=67	=67	=67	=67	=67
8e/L	4.E\	.	.	4ee/	32ee\LLL	.	.
.	.	.	.	.	32b\	.	.
.	.	.	.	.	32g\	.	.
.	.	.	.	.	32b\JJJ	.	.
8B/	.	.	.	.	32g\LLL	.	.
.	.	.	.	.	32b\	.	.
.	.	.	.	.	32g\	.	.
.	.	.	.	.	32b\JJJ	.	.
8B/J	.	.	.	8ee/	32ee\LLL	.	.
.	.	.	.	.	32b\	.	.
.	.	.	.	.	32g\	.	.
.	.	.	.	.	32b\JJJ	.	.
=68	=68	=68	=68	=68	=68	=68	=68
8dn/L	4.D\	.	.	8ee/L	32ee\LLL	.	sf
.	.	.	.	.	32b\	.	.
.	.	.	.	.	32g#X\	.	.
.	.	.	.	.	32b\JJJ	.	.
8B/	.	.	.	8ffn^/	32ff\LLL	.	.
.	.	.	.	.	32b\	.	.
.	.	.	.	.	32g#\	.	.
.	.	.	.	.	32b\JJJ	.	.
8B/J	.	.	.	8ee/J	32ee\LLL	.	.
.	.	.	.	.	32b\	.	.
.	.	.	.	.	32g#\	.	.
.	.	.	.	.	32b\JJJ	.	.
=69	=69	=69	=69	=69	=69	=69	=69
8c/L	4.C\	.	.	8ee/L	32ee\LLL	.	sf
.	.	.	.	.	32cc\	.	.
.	.	.	.	.	32a\	.	.
.	.	.	.	.	32cc\JJJ	.	.
8A/	.	.	.	8ff^/	32ff\LLL	.	.
.	.	.	.	.	32cc\	.	.
.	.	.	.	.	32a\	.	.
.	.	.	.	.	32cc\JJJ	.	.
8A/J	.	.	.	8ee/J	32ee\LLL	.	.
.	.	.	.	.	32cc\	.	.
.	.	.	.	.	32a\	.	.
.	.	.	.	.	32cc\JJJ	.	.
=70	=70	=70	=70	=70	=70	=70	=70
8G#X/L	4.GG#X\	.	.	8bb/L	32bb\LLL	.	sf
.	.	.	.	.	32dd\	.	.
.	.	.	.	.	32ee\	.	.
.	.	.	.	.	32dd\JJJ	.	.
8E/	.	.	.	8ccc/	32ccc\LLL	.	.
.	.	.	.	.	32dd\	.	.
.	.	.	.	.	32ee\	.	.
.	.	.	.	.	32dd\JJJ	.	.
8E/J	.	.	.	8bb/J	32bb\LLL	.	.
.	.	.	.	.	32dd\	.	.
.	.	.	.	.	32ee\	.	.
.	.	.	.	.	32dd\JJJ	.	.
=71	=71	=71	=71	=71	=71	=71	=71
8A/L	4.AA\	.	.	4bb/	32bb\LLL	.	f
.	.	.	.	.	32ee\	.	.
.	.	.	.	.	32cc\	.	.
.	.	.	.	.	32ee\JJJ	.	.
8E/	.	.	.	.	32cc\LLL	.	.
.	.	.	.	.	32ee\	.	.
.	.	.	.	.	32cc\	.	.
.	.	.	.	.	32ee\JJJ	.	.
8E/J	.	.	.	8aa/	32aa\LLL	.	.
.	.	.	.	.	32ee\	.	.
.	.	.	.	.	32cc\	.	.
.	.	.	.	.	32ee\JJJ	.	.
=72	=72	=72	=72	=72	=72	=72	=72
8g/L	4.G\	.	.	8aa/L	32aa\LLL	.	.
.	.	.	.	.	32dd\	.	.
.	.	.	.	.	32cc#X\	.	.
.	.	.	.	.	32ee\JJJ	.	.
8e/	.	.	.	8bb-X^/	32bb-\LLL	.	.
.	.	.	.	.	32ee\	.	.
.	.	.	.	.	32cc#\	.	.
.	.	.	.	.	32ee\JJJ	.	.
8e/J	.	.	.	8aa/J	32aa\LLL	.	.
.	.	.	.	.	32ee\	.	.
.	.	.	.	.	32cc#\	.	.
.	.	.	.	.	32ee\JJJ	.	.
=73	=73	=73	=73	=73	=73	=73	=73
8f/L	4.F\	.	.	8aa/L	32aa\LLL	.	.
.	.	.	.	.	32ff\	.	.
.	.	.	.	.	32dd\	.	.
.	.	.	.	.	32ff\JJJ	.	.
8d/	.	.	.	8bb-X^/	32bb-\LLL	.	.
.	.	.	.	.	32ff\	.	.
.	.	.	.	.	32dd\	.	.
.	.	.	.	.	32ff\JJJ	.	.
8d/J	.	.	.	8aa/J	32aa\LLL	.	.
.	.	.	.	.	32ff\	.	.
.	.	.	.	.	32dd\	.	.
.	.	.	.	.	32ff\JJJ	.	.
=74	=74	=74	=74	=74	=74	=74	=74
8c#X/L	4.C#X\	.	.	8eee/L	32eee\LLL	.	rfz
.	.	.	.	.	32aa\	.	.
.	.	.	.	.	32gg\	.	.
.	.	.	.	.	32aa\JJJ	.	.
8A/	.	.	.	8fff/	32fff\LLL	.	.
.	.	.	.	.	32aa\	.	.
.	.	.	.	.	32gg\	.	.
.	.	.	.	.	32aa\JJJ	.	.
8A/J	.	.	.	8eee/J	32eee\LLL	.	.
.	.	.	.	.	32aa\	.	.
.	.	.	.	.	32gg\	.	.
.	.	.	.	.	32aa\JJJ	.	.
=75	=75	=75	=75	=75	=75	=75	=75
8d/L	4.D\	.	.	4eee^/	32eee\LLL	.	.
.	.	.	.	.	32aa\	.	.
.	.	.	.	.	32ff\	.	.
.	.	.	.	.	32aa\JJJ	.	.
8A/	.	.	.	.	32ff\LLL	.	.
.	.	.	.	.	32aa\	.	.
.	.	.	.	.	32ff\	.	.
.	.	.	.	.	32aa\JJJ	.	.
8A/J	.	.	.	8ddd/	32ddd\LLL	.	.
.	.	.	.	.	32aa\	.	.
.	.	.	.	.	32ff\	.	.
.	.	.	.	.	32aa\JJJ	.	.
=76	=76	=76	=76	=76	=76	=76	=76
8B/L	4.BB\	.	.	8ddd/L	32ddd\LLL	.	rfz
.	.	.	.	.	32gg\	.	.
.	.	.	.	.	32ff\	.	.
.	.	.	.	.	32gg\JJJ	.	.
8G/	.	.	.	8eee/	32eee\LLL	.	.
.	.	.	.	.	32gg\	.	.
.	.	.	.	.	32ff\	.	.
.	.	.	.	.	32gg\JJJ	.	.
8G/J	.	.	.	8ddd/J	32ddd\LLL	.	.
.	.	.	.	.	32gg\	.	.
.	.	.	.	.	32ff\	.	.
.	.	.	.	.	32gg\JJJ	.	.
=77	=77	=77	=77	=77	=77	=77	=77
8c/L	4.C\	.	.	4ddd^/	32ddd\LLL	.	.
.	.	.	.	.	32gg\	.	.
.	.	.	.	.	32ee\	.	.
.	.	.	.	.	32gg\JJJ	.	.
8G/	.	.	.	.	32ee\LLL	.	.
.	.	.	.	.	32gg\	.	.
.	.	.	.	.	32ee\	.	.
.	.	.	.	.	32gg\JJJ	.	.
8G/J	.	.	.	8ccc/	32ccc\LLL	.	.
.	.	.	.	.	32gg\	.	.
.	.	.	.	.	32ee\	.	.
.	.	.	.	.	32gg\JJJ	.	.
=78	=78	=78	=78	=78	=78	=78	=78
8A/L	4.AA\	.	.	8ccc/L	32ccc\LLL	.	rfz
.	.	.	.	.	32ff\	.	.
.	.	.	.	.	32ee\	.	.
.	.	.	.	.	32ff\JJJ	.	.
8F/	.	.	.	8ddd/	32ddd\LLL	.	.
.	.	.	.	.	32ff\	.	.
.	.	.	.	.	32ee\	.	.
.	.	.	.	.	32ff\JJJ	.	.
8F/J	.	.	.	8ccc/J	32ccc\LLL	.	.
.	.	.	.	.	32ff\	.	.
.	.	.	.	.	32ee\	.	.
.	.	.	.	.	32ff\JJJ	.	.
=79	=79	=79	=79	=79	=79	=79	=79
8B/L	4.BB\	.	.	4ccc^/	32ccc\LLL	.	.
.	.	.	.	.	32ff\	.	.
.	.	.	.	.	32dd\	.	.
.	.	.	.	.	32ff\JJJ	.	.
8F/	.	.	.	.	32dd\LLL	.	.
.	.	.	.	.	32ff\	.	.
.	.	.	.	.	32dd\	.	.
.	.	.	.	.	32ff\JJJ	.	.
8F/J	.	.	.	8bb/	32bb\LLL	.	.
.	.	.	.	.	32ff\	.	.
.	.	.	.	.	32dd\	.	.
.	.	.	.	.	32ff\JJJ	.	.
=80	=80	=80	=80	=80	=80	=80	=80
8G#X/L	4.GG#X\	.	.	8bb/L	32bb\LLL	.	.
.	.	.	.	.	32ee\	.	.
.	.	.	.	.	32dd\	.	.
.	.	.	.	.	32ee\JJJ	.	.
8E/	.	.	.	8ccc/	32ccc\LLL	.	.
.	.	.	.	.	32ee\	.	.
.	.	.	.	.	32dd\	.	.
.	.	.	.	.	32ee\JJJ	.	.
8E/J	.	.	.	8bb/J	32bb\LLL	.	.
.	.	.	.	.	32ee\	.	.
.	.	.	.	.	32dd\	.	.
.	.	.	.	.	32ee\JJJ	.	.
=81	=81	=81	=81	=81	=81	=81	=81
8A/L	4.AA\	.	.	4bb^/	32bb\LLL	.	.
.	.	.	.	.	32ee\	.	.
.	.	.	.	.	32cc\	.	.
.	.	.	.	.	32ee\JJJ	.	.
8E/	.	.	.	.	32cc\LLL	.	.
.	.	.	.	.	32ee\	.	.
.	.	.	.	.	32cc\	.	.
.	.	.	.	.	32ee\JJJ	.	.
8E/J	.	.	.	8aa/	32aa\LLL	.	.
.	.	.	.	.	32ee\	.	.
.	.	.	.	.	32cc\	.	.
.	.	.	.	.	32ee\JJJ	.	<
=82	=82	=82	=82	=82	=82	=82	=82
8G/L	4.GG\	.	.	4bb^/	32bb\LLL	.	.
.	.	.	.	.	32ee\	.	.
.	.	.	.	.	32cc\	.	.
.	.	.	.	.	32ee\JJJ	.	.
8E/	.	.	.	.	32cc\LLL	.	.
.	.	.	.	.	32ee\	.	.
.	.	.	.	.	32cc\	.	.
.	.	.	.	.	32ee\JJJ	.	.
8E/J	.	.	.	8aa/	32aa\LLL	.	.
.	.	.	.	.	32ee\	.	.
.	.	.	.	.	32cc\	.	.
.	.	.	.	.	32ee\JJJ	.	.
=83	=83	=83	=83	=83	=83	=83	=83
8F/L	4.FF\	.	.	4bb^/	32bb\LLL	.	.
.	.	.	.	.	32ff\	.	.
.	.	.	.	.	32cc\	.	.
.	.	.	.	.	32ff\JJJ	.	.
8C/	.	.	.	.	32cc\LLL	.	.
.	.	.	.	.	32ff\	.	.
.	.	.	.	.	32cc\	.	.
.	.	.	.	.	32ff\JJJ	.	.
8C/J	.	.	.	8aa/	32aa\LLL	.	.
.	.	.	.	.	32ff\	.	.
.	.	.	.	.	32cc\	.	.
.	.	.	.	.	32ff\JJJ	.	.
=84	=84	=84	=84	=84	=84	=84	=84
8F#X/L	4.FF#X\	.	.	8ccc/L	32ccc\LLL	.	.
.	.	.	.	.	32ee-X\	.	[
.	.	.	.	.	32cc\	.	.
.	.	.	.	.	32ee-\JJJ	.	.
8E-X/	.	.	.	8bb/	32bb\LLL	.	.
.	.	.	.	.	32ee-\	.	.
.	.	.	.	.	32cc\	.	.
.	.	.	.	.	32ee-\JJJ	.	.
8E-/J	.	.	.	8aa/J	32aa\LLL	.	.
.	.	.	.	.	32ff\	.	.
.	.	.	.	.	32cc\	.	.
.	.	.	.	.	32ff\JJJ	.	.
=85	=85	=85	=85	=85	=85	=85	=85
8G/L	4.GG\	.	.	8aa/L	32aa\LLL	.	.
.	.	.	.	.	32een\	.	.
.	.	.	.	.	32cc\	.	.
.	.	.	.	.	32ee\JJJ	.	.
8En/	.	.	.	8gg/	32gg\LLL	.	.
.	.	.	.	.	32ee\	.	.
.	.	.	.	.	32cc\	.	.
.	.	.	.	.	32ee\JJJ	.	.
8E/J	.	.	.	8gg/J	32gg\LLL	.	.
.	.	.	.	.	32ee\	.	.
.	.	.	.	.	32cc\	.	.
.	.	.	.	.	32ee\JJJ	.	.
=86	=86	=86	=86	=86	=86	=86	=86
8G/L	4GG\	.	.	8gg/L	32gg\LLL	.	.
.	.	.	.	.	32ff\	.	.
.	.	.	.	.	32dd\	.	.
.	.	.	.	.	32ff\JJJ	.	.
8D/	.	.	.	8aa/	32aa\LLL	.	.
.	.	.	.	.	32ff\	.	.
.	.	.	.	.	32dd\	.	.
.	.	.	.	.	32ff\JJJ	.	.
8G/J	8GG\	.	.	8bb/J	32bb\LLL	.	.
.	.	.	.	.	32ff\	.	.
.	.	.	.	.	32dd\	.	.
.	.	.	.	.	32ff\JJJ	.	.
*v	*v	*	*	*	*	*	*
=87	=87	=87	=87	=87	=87	=87
!!linebreak:original
4C/	.	.	4rcccyy	32ccc\LLL	.	.
.	.	.	.	32ee\	.	.
.	.	.	.	32cc\	.	.
.	.	.	.	32ee\JJJ	.	.
.	.	.	.	32cc\LLL	.	.
.	.	.	.	32ee\	.	.
.	.	.	.	32cc\	.	.
.	.	.	.	32ee\JJJ	.	.
8r	.	.	8ccc/	32ccc\LLL	.	.
.	.	.	.	32gg\	.	.
.	.	.	.	32ee\	.	.
.	.	.	.	32gg\JJJ	.	.
=88	=88	=88	=88	=88	=88	=88
*^	*	*	*	*	*	*
!	!	!	!	!LO:TX:a:t=ped	!	!	!
32C/LLL	8C\	.	.	8ddd/L	32ddd\LLL	.	ff
32G/	.	.	.	.	32gg\	.	.
32B/	.	.	.	.	32ff\	.	.
32G/JJJ	.	.	.	.	32gg\JJJ	.	.
32B/LLL	8r	.	.	8eee/	32eee\LLL	.	.
32G/	.	.	.	.	32gg\	.	.
32B/	.	.	.	.	32ff\	.	.
32G/JJJ	.	.	.	.	32gg\JJJ	.	.
32C/LLL	8C\	.	.	8ddd/J	32ddd\LLL	.	.
32G/	.	.	.	.	32gg\	.	.
32B/	.	.	.	.	32ff\	.	.
32G/JJJ	.	.	.	.	32gg\JJJ	.	.
=89	=89	=89	=89	=89	=89	=89	=89
32C/LLL	8C\	.	.	8ccc/L	32ccc\LLL	.	.
32G/	.	.	.	.	32gg\	.	.
32c/	.	.	.	.	32ee\	.	.
32G/JJJ	.	.	.	.	32gg\JJJ	.	.
32c/LLL	8r	.	.	8bb/	32bb\LLL	.	.
32G/	.	.	.	.	32gg\	.	.
32c/	.	.	.	.	32ee\	.	.
32G/JJJ	.	.	.	.	32gg\JJJ	.	.
32C/LLL	8C\	.	.	8aa/J	32aa\LLL	.	.
32G/	.	.	.	.	32gg\	.	.
32c/	.	.	.	.	32ee\	.	.
32G/JJJ	.	.	.	.	32gg\JJJ	.	.
=90	=90	=90	=90	=90	=90	=90	=90
32C/LLL	8C\	.	.	8gg/L	32gg\LLL	.	.
32G/	.	.	.	.	32ff\	.	.
32B/	.	.	.	.	32dd\	.	.
32G/JJJ	.	.	.	.	32ff\JJJ	.	.
32B/LLL	8r	.	.	8aa-X/	32aa-\LLL	.	.
32G/	.	.	.	.	32ff\	.	.
32B/	.	.	.	.	32dd\	.	.
32G/JJJ	.	.	.	.	32ff\JJJ	.	.
32C/LLL	8C\	.	.	8gg/J	32gg\LLL	.	.
32G/	.	.	.	.	32ff\	.	.
32B/	.	.	.	.	32dd\	.	.
32G/JJJ	.	.	.	.	32ff\JJJ	.	.
=91	=91	=91	=91	=91	=91	=91	=91
32C/LLL	8C\	.	.	4ccc/	32ccc\LLL	.	.
32G/	.	.	.	.	32gg\	.	.
32c/	.	.	.	.	32ee\	.	.
32G/JJJ	.	.	.	.	32gg\JJJ	.	.
32c/LLL	8r	.	.	.	32ee\LLL	.	.
32G/	.	.	.	.	32gg\	.	.
32c/	.	.	.	.	32ee\	.	.
32G/JJJ	.	.	.	.	32gg\JJJ	.	.
32C/LLL	8C\	.	.	8ccc#X/	32ccc#\LLL	.	.
32G/	.	.	.	.	32gg\	.	.
32c/	.	.	.	.	32ee\	.	.
32G/JJJ	.	.	.	.	32gg\JJJ	.	.
=92	=92	=92	=92	=92	=92	=92	=92
32C/LLL	8C\	.	.	8ddd/L	32ddd\LLL	.	.
32G/	.	.	.	.	32gg\	.	.
32B/	.	.	.	.	32ff\	.	.
32G/JJJ	.	.	.	.	32gg\JJJ	.	.
32B/LLL	8r	.	.	8eee/	32eee\LLL	.	.
32G/	.	.	.	.	32gg\	.	.
32B/	.	.	.	.	32ff\	.	.
32G/JJJ	.	.	.	.	32gg\JJJ	.	.
32C/LLL	8C\	.	.	8fff/J	32fff\LLL	.	.
32G/	.	.	.	.	32gg\	.	.
32B/	.	.	.	.	32ff\	.	.
32G/JJJ	.	.	.	.	32gg\JJJ	.	.
=93	=93	=93	=93	=93	=93	=93	=93
32C/LLL	8C\	.	.	4ggg/	32ggg\LLL	.	.
32G/	.	.	.	.	32gg\	.	.
32c/	.	.	.	.	32ee\	.	.
32G/JJJ	.	.	.	.	32gg\JJJ	.	.
32c/LLL	8r	.	.	.	32ee\LLL	.	.
32G/	.	.	.	.	32gg\	.	.
32c/	.	.	.	.	32ee\	.	.
32G/JJJ	.	.	.	.	32gg\JJJ	.	.
32C/LLL	8C\	.	.	8eee/	32eee\LLL	.	.
32G/	.	.	.	.	32gg\	.	.
32c/	.	.	.	.	32ee\	.	.
32G/JJJ	.	.	.	.	32gg\JJJ	.	.
=94	=94	=94	=94	=94	=94	=94	=94
32C/LLL	8C\	.	.	8ddd/L	32ddd\LLL	.	.
32G/	.	.	.	.	32gg\	.	.
32B/	.	.	.	.	32ff\	.	.
32G/JJJ	.	.	.	.	32gg\JJJ	.	.
32B/LLL	8r	.	.	8eee/	32eee\LLL	.	.
32G/	.	.	.	.	32gg\	.	.
32B/	.	.	.	.	32ff\	.	.
32G/JJJ	.	.	.	.	32gg\JJJ	.	.
32C/LLL	8C\	.	.	8ddd/J	32ddd\LLL	.	.
32G/	.	.	.	.	32gg\	.	.
32B/	.	.	.	.	32ff\	.	.
32G/JJJ	.	.	.	.	32gg\JJJ	.	.
=95	=95	=95	=95	=95	=95	=95	=95
32C/LLL	8C\	.	.	4ccc/	32ccc\LLL	.	.
32G/	.	.	.	.	32gg\	.	.
32c/	.	.	.	.	32ee\	.	.
32G/JJJ	.	.	.	.	32gg\JJJ	.	.
32c/LLL	8r	.	.	.	32ee\LLL	.	.
32G/	.	.	.	.	32gg\	.	.
32c/	.	.	.	.	32ee\	.	.
32G/JJJ	.	.	.	.	32gg\JJJ	.	.
32C/LLL	8C\	.	.	8ccc/	32ccc\LLL	.	.
32G/	.	.	.	.	32gg\	.	.
32c/	.	.	.	.	32ee\	.	.
32G/JJJ	.	.	.	.	32gg\JJJ	.	.
=96	=96	=96	=96	=96	=96	=96	=96
32C/LLL	4C\	.	.	8eee/L	32eee\LLL	.	.
32B-X/	.	.	.	.	32bb-X\	.	.
32c/	.	.	.	.	32gg\	.	.
32B-/JJJ	.	.	.	.	32bb-\JJJ	.	.
32c/LLL	.	.	.	8ddd/	32ddd\LLL	.	.
32B-/	.	.	.	.	32bb-\	.	.
32c/	.	.	.	.	32gg\	.	.
32B-/JJJ	.	.	.	.	32bb-\JJJ	.	.
32C/LLL	8C\	.	.	8eee/J	32eee\LLL	.	.
32B-/	.	.	.	.	32bb-\	.	.
32c/	.	.	.	.	32gg\	.	.
32B-/JJJ	.	.	.	.	32bb-\JJJ	.	.
=97	=97	=97	=97	=97	=97	=97	=97
32C/LLL	4C\	.	.	4reeeyy	32ddd\LLL	.	.
32A/	.	.	.	.	32aa\	.	.
32c/	.	.	.	.	32ff\	.	.
32A/JJJ	.	.	.	.	32aa\JJJ	.	.
32c/LLL	.	.	.	.	32ff\LLL	.	.
32A/	.	.	.	.	32aa\	.	.
32c/	.	.	.	.	32ff\	.	.
32A/JJJ	.	.	.	.	32aa\JJJ	.	.
32C/LLL	8C\	.	.	8fff/	32fff\LLL	.	.
32A/	.	.	.	.	32aa\	.	.
32c/	.	.	.	.	32ff\	.	.
32A/JJJ	.	.	.	.	32aa\JJJ	.	.
=98	=98	=98	=98	=98	=98	=98	=98
32C/LLL	4C\	.	.	8fff/L	32fff\LLL	.	.
32G/	.	.	.	.	32bbn\	.	.
32Bn/	.	.	.	.	32gg\	.	.
32G/JJJ	.	.	.	.	32bb\JJJ	.	.
32B/LLL	.	.	.	8ggg/	32ggg\LLL	.	.
32G/	.	.	.	.	32bb\	.	.
32B/	.	.	.	.	32gg\	.	.
32G/JJJ	.	.	.	.	32bb\JJJ	.	.
32C/LLL	8C\	.	.	8fff/J	32fff\LLL	.	.
32G/	.	.	.	.	32bb\	.	.
32B/	.	.	.	.	32gg\	.	.
32G/JJJ	.	.	.	.	32bb\JJJ	.	.
=99	=99	=99	=99	=99	=99	=99	=99
32C/LLL	4C\	.	.	4eee/	32eee\LLL	.	.
32G/	.	.	.	.	32ccc\	.	.
32c/	.	.	.	.	32gg\	.	.
32G/JJJ	.	.	.	.	32ccc\JJJ	.	.
32c/LLL	.	.	.	.	32gg\LLL	.	.
32G/	.	.	.	.	32ccc\	.	.
32c/	.	.	.	.	32gg\	.	.
32G/JJJ	.	.	.	.	32ccc\JJJ	.	.
32C/LLL	8C\	.	.	8eee/	32eee\LLL	.	.
32G/	.	.	.	.	32ccc\	.	.
32c/	.	.	.	.	32gg\	.	.
32G/JJJ	.	.	.	.	32ccc\JJJ	.	.
=100	=100	=100	=100	=100	=100	=100	=100
32C/LLL	8C\	.	.	8eee/L	32eee\LLL	.	.
32B-X/	.	.	.	.	32bb-X\	.	.
32e/	.	.	.	.	32gg\	.	.
32B-/JJJ	.	.	.	.	32bb-\JJJ	.	.
32e/LLL	8r	.	.	8ddd/	32ddd\LLL	.	.
32B-/	.	.	.	.	32bb-\	.	.
32e/	.	.	.	.	32gg\	.	.
32B-/JJJ	.	.	.	.	32bb-\JJJ	.	.
32C/LLL	8C\	.	.	8eee/J	32eee\LLL	.	.
32B-/	.	.	.	.	32bb-\	.	.
32e/	.	.	.	.	32gg\	.	.
32B-/JJJ	.	.	.	.	32bb-\JJJ	.	.
=101	=101	=101	=101	=101	=101	=101	=101
32C/LLL	8C\	.	.	4fff/	32fff\LLL	.	.
32A/	.	.	.	.	32aa\	.	.
32f/	.	.	.	.	32ff\	.	.
32A/JJJ	.	.	.	.	32aa\JJJ	.	.
32f/LLL	8r	.	.	.	32ff\LLL	.	.
32A/	.	.	.	.	32aa\	.	.
32f/	.	.	.	.	32ff\	.	.
32A/JJJ	.	.	.	.	32aa\JJJ	.	.
32C/LLL	8C\	.	.	8fff/	32fff\LLL	.	.
32A/	.	.	.	.	32aa\	.	.
32f/	.	.	.	.	32ff\	.	.
32A/JJJ	.	.	.	.	32aa\JJJ	.	.
=102	=102	=102	=102	=102	=102	=102	=102
32C/LLL	8C\	.	.	8fff/L	32fff\LLL	.	.
32G/	.	.	.	.	32bbn\	.	.
32d/	.	.	.	.	32gg\	.	.
32G/JJJ	.	.	.	.	32bb\JJJ	.	.
32d/LLL	8r	.	.	8ggg/	32ggg\LLL	.	.
32G/	.	.	.	.	32bb\	.	.
32d/	.	.	.	.	32gg\	.	.
32G/JJJ	.	.	.	.	32bb\JJJ	.	.
32C/LLL	8C\	.	.	8fff/J	32fff\LLL	.	.
32G/	.	.	.	.	32bb\	.	.
32d/	.	.	.	.	32gg\	.	.
32G/JJJ	.	.	.	.	32bb\JJJ	.	.
=103	=103	=103	=103	=103	=103	=103	=103
32C/LLL	8C\	.	.	4eee/	32eee\LLL	.	.
32G/	.	.	.	.	32gg\	.	.
32c/	.	.	.	.	32ee\	.	.
32G/JJJ	.	.	.	.	32gg\JJJ	.	.
32c/LLL	8r	.	.	.	32ee\LLL	.	.
32G/	.	.	.	.	32gg\	.	.
32c/	.	.	.	.	32ee\	.	.
32G/JJJ	.	.	.	.	32gg\JJJ	.	.
32C/LLL	8C\	.	.	8eee/	32eee\LLL	.	.
32G/	.	.	.	.	32gg\	.	.
32c/	.	.	.	.	32ee\	.	.
32G/JJJ	.	.	.	.	32gg\JJJ	.	.
=104	=104	=104	=104	=104	=104	=104	=104
32C/LLL	8C\	.	.	8ddd/L	32ddd\LLL	.	.
32G/	.	.	.	.	32gg\	.	.
32B/	.	.	.	.	32ff\	.	.
32G/JJJ	.	.	.	.	32gg\JJJ	.	.
32B/LLL	8r	.	.	8eee/	32eee\LLL	.	.
32G/	.	.	.	.	32gg\	.	.
32B/	.	.	.	.	32ff\	.	.
32G/JJJ	.	.	.	.	32gg\JJJ	.	.
32C/LLL	8C\	.	.	8ddd/J	32ddd\LLL	.	.
32G/	.	.	.	.	32gg\	.	.
32B/	.	.	.	.	32ff\	.	.
32G/JJJ	.	.	.	.	32gg\JJJ	.	.
=105	=105	=105	=105	=105	=105	=105	=105
32C/LLL	8C\	.	.	8ccc/L	32ccc\LLL	.	.
32G/	.	.	.	.	32gg\	.	.
32c/	.	.	.	.	32ee\	.	.
32G/JJJ	.	.	.	.	32gg\JJJ	.	.
32c/LLL	8r	.	.	8bb/	32bb\LLL	.	.
32G/	.	.	.	.	32gg\	.	.
32c/	.	.	.	.	32ee\	.	.
32G/JJJ	.	.	.	.	32gg\JJJ	.	.
32C/LLL	8C\	.	.	8aa/J	32aa\LLL	.	.
32G/	.	.	.	.	32gg\	.	.
32c/	.	.	.	.	32ee\	.	.
32G/JJJ	.	.	.	.	32gg\JJJ	.	.
=106	=106	=106	=106	=106	=106	=106	=106
32C/LLL	8C\	.	.	8gg/L	32gg\LLL	.	.
32G/	.	.	.	.	32ff\	.	.
32B/	.	.	.	.	32dd\	.	.
32G/JJJ	.	.	.	.	32ff\JJJ	.	.
32B/LLL	8r	.	.	8aa-X/	32aa-\LLL	.	.
32G/	.	.	.	.	32ff\	.	.
32B/	.	.	.	.	32dd\	.	.
32G/JJJ	.	.	.	.	32ff\JJJ	.	.
32C/LLL	8C\	.	.	8gg/J	32gg\LLL	.	.
32G/	.	.	.	.	32ff\	.	.
32B/	.	.	.	.	32dd\	.	.
32G/JJJ	.	.	.	.	32ff\JJJ	.	.
=107	=107	=107	=107	=107	=107	=107	=107
32C/LLL	8C\	.	.	4ccc/	32ccc\LLL	.	.
32G/	.	.	.	.	32gg\	.	.
32c/	.	.	.	.	32ee\	.	.
32G/JJJ	.	.	.	.	32gg\JJJ	.	.
32c/LLL	8r	.	.	.	32ee\LLL	.	.
32G/	.	.	.	.	32gg\	.	.
32c/	.	.	.	.	32ee\	.	.
32G/JJJ	.	.	.	.	32gg\JJJ	.	.
32C/LLL	8C\	.	.	8ccc#X/	32ccc#\LLL	.	.
32G/	.	.	.	.	32gg\	.	.
32c/	.	.	.	.	32ee\	.	.
32G/JJJ	.	.	.	.	32gg\JJJ	.	.
=108	=108	=108	=108	=108	=108	=108	=108
32C/LLL	8C\	.	.	8ddd/L	32ddd\LLL	.	.
32G/	.	.	.	.	32gg\	.	.
32B/	.	.	.	.	32ff\	.	.
32G/JJJ	.	.	.	.	32gg\JJJ	.	.
32B/LLL	8r	.	.	8eee/	32eee\LLL	.	.
32G/	.	.	.	.	32gg\	.	.
32B/	.	.	.	.	32ff\	.	.
32G/JJJ	.	.	.	.	32gg\JJJ	.	.
32C/LLL	8C\	.	.	8fff/J	32fff\LLL	.	.
32G/	.	.	.	.	32gg\	.	.
32B/	.	.	.	.	32ff\	.	.
32G/JJJ	.	.	.	.	32gg\JJJ	.	.
=109	=109	=109	=109	=109	=109	=109	=109
32C/LLL	8C\	.	.	4ggg/	32ggg\LLL	.	.
32G/	.	.	.	.	32gg\	.	.
32c/	.	.	.	.	32ee\	.	.
32G/JJJ	.	.	.	.	32gg\JJJ	.	.
32c/LLL	8r	.	.	.	32ee\LLL	.	.
32G/	.	.	.	.	32gg\	.	.
32c/	.	.	.	.	32ee\	.	.
32G/JJJ	.	.	.	.	32gg\JJJ	.	.
32C/LLL	8C\	.	.	8eee/	32eee\LLL	.	.
32G/	.	.	.	.	32gg\	.	.
32c/	.	.	.	.	32ee\	.	.
32G/JJJ	.	.	.	.	32gg\JJJ	.	.
=110	=110	=110	=110	=110	=110	=110	=110
32C/LLL	8C\	.	.	8ddd/L	32ddd\LLL	.	.
32G/	.	.	.	.	32gg\	.	.
32B/	.	.	.	.	32ff\	.	.
32G/JJJ	.	.	.	.	32gg\JJJ	.	.
32B/LLL	8r	.	.	8eee/	32eee\LLL	.	.
32G/	.	.	.	.	32gg\	.	.
32B/	.	.	.	.	32ff\	.	.
32G/JJJ	.	.	.	.	32gg\JJJ	.	.
32C/LLL	8C\	.	.	8ddd/J	32ddd\LLL	.	.
32G/	.	.	.	.	32gg\	.	.
32B/	.	.	.	.	32ff\	.	.
32G/JJJ	.	.	.	.	32gg\JJJ	.	.
*v	*v	*	*	*	*	*	*
=111	=111	=111	=111	=111	=111	=111
4C\ 4c\	.	.	4ccc/	32ccc\LLL	.	.
.	.	.	.	32gg\	.	.
.	.	.	.	32ee\	.	.
.	.	.	.	32gg\JJJ	.	.
.	.	.	.	32ee\LLL	.	.
.	.	.	.	32gg\	.	.
.	.	.	.	32ee\	.	.
.	.	.	.	32gg\JJJ	.	.
8AA\ 8A\	.	.	8ccc#X/	32ccc#\LLL	.	rfz
.	.	.	.	32gg\	.	.
.	.	.	.	32ee\	.	.
.	.	.	.	32gg\JJJ	.	.
=112	=112	=112	=112	=112	=112	=112
4D\ 4d\	.	.	4reeeyy	32ddd\LLL	.	.
.	.	.	.	32aa\	.	.
.	.	.	.	32ff\	.	.
.	.	.	.	32aa\JJJ	.	.
.	.	.	.	32ff\LLL	.	.
.	.	.	.	32aa\	.	.
.	.	.	.	32ff\	.	.
.	.	.	.	32aa\JJJ	.	.
8BB\ 8B\	.	.	8ddd#X/	32ddd#\LLL	.	rfz
.	.	.	.	32aa\	.	.
!	!	!	!LO:TX:a:t=ben marcate e cre--scen-do.	!	!	!
!	!	!	!LO:TX:b:t=  ben marcate	!	!	!
.	.	.	.	32ff#X\	.	.
.	.	.	.	32aa\JJJ	.	.
=113	=113	=113	=113	=113	=113	=113
4E\ 4e\	.	.	4reeeyy	32eee\LLL	.	.
.	.	.	.	32bb\	.	.
.	.	.	.	32gg\	.	.
.	.	.	.	32bb\JJJ	.	.
.	.	.	.	32gg\LLL	.	.
.	.	.	.	32bb\	.	.
.	.	.	.	32gg\	.	.
.	.	.	.	32bb\JJJ	.	.
8C\ 8c\	.	.	8eee/	32eee\LLL	.	.
.	.	.	.	32bb-X\	.	.
.	.	.	.	32gg\	.	.
.	.	.	.	32bb-\JJJ	.	.
=114	=114	=114	=114	=114	=114	=114
4F\ 4f\	.	.	4fff/	32fff\LLL	.	.
.	.	.	.	32ccc\	.	.
!	!	!	!LO:TX:b:t=e	!	!	!
.	.	.	.	32aa\	.	.
.	.	.	.	32ccc\JJJ	.	.
.	.	.	.	32aa\LLL	.	.
.	.	.	.	32ccc\	.	.
!	!	!	!LO:TX:b:t=cre	!	!	!
.	.	.	.	32aa\	.	.
.	.	.	.	32ccc\JJJ	.	.
8D\ 8d\	.	.	8fff#X/	32fff#\LLL	.	.
.	.	.	.	32ccc\	.	.
.	.	.	.	32aa\	.	.
.	.	.	.	32ccc\JJJ	.	.
=115	=115	=115	=115	=115	=115	=115
8G\L 8g\	.	.	8ggg/L	32ggg\LLL	.	.
.	.	.	.	32bb\	.	.
!	!	!	!LO:TX:b:t=scen	!	!	!
.	.	.	.	32gg\	.	.
.	.	.	.	32bb\JJJ	.	.
8Fn\ 8fn\	.	.	8ggg/	32ggg\LLL	.	.
.	.	.	.	32bb\	.	.
.	.	.	.	32gg\	.	.
.	.	.	.	32bb\JJJ	.	.
8E\J 8e\	.	.	8ggg/J	32ggg\LLL	.	.
!	!	!	!LO:TX:b:t=do	!	!	!
.	.	.	.	32ccc\	.	.
.	.	.	.	32gg\	.	.
.	.	.	.	32ccc\JJJ	.	.
=116	=116	=116	=116	=116	=116	=116
8D\L 8d\	.	.	8fff#X/L	32fff#\LLL	.	.
.	.	.	.	32ccc\	.	.
.	.	.	.	32gg\	.	.
.	.	.	.	32ccc\JJJ	.	.
8BB\ 8B\	.	.	8fffn/	32fff\LLL	.	rfz
.	.	.	.	32ddd\	.	.
.	.	.	.	32aa-X\	.	.
.	.	.	.	32fff\JJJ	.	.
8C\J 8c\	.	.	8eee/J	32eee\LLL	.	.
.	.	.	.	32ccc\	.	.
.	.	.	.	32gg\	.	.
.	.	.	.	32eee\JJJ	.	.
=117	=117	=117	=117	=117	=117	=117
!	!	!	!LO:TX:a:t=mixed beam	!	!	!
(8F\L	.	.	8ddd/L	32ddd\LLL	.	>
.	.	.	.	32aan\	.	.
.	.	.	.	32ff\	.	.
.	.	.	.	32ddd\JJJ	.	.
8G\	.	.	8ccc/	32ccc\LLL	.	.
.	.	.	.	32gg\	.	.
.	.	.	.	32ee\	.	.
.	.	.	.	32gg\JJJ	.	.
8GG\J)	.	.	8bb/J	32bb\LLL	.	.
.	.	.	.	32ff\	.	.
.	.	.	.	32dd\	.	.
.	.	.	.	32bb\JJJ	.	.
=118	=118	=118	=118	=118	=118	=118
4C/	.	.	16ee\ 16ccc\	4rcyy	.	]
.	.	.	32e/LLL	.	.	.
.	.	.	32g/JJJ	.	.	.
.	.	.	32e/LLL	.	.	.
.	.	.	32g/	.	.	.
.	.	.	32e/	.	.	.
.	.	.	32g/JJJ	.	.	.
8r	.	.	8cc/	32cc\LLL	.	.
.	.	.	.	32g\	.	.
.	.	.	.	32e\	.	.
.	.	.	.	32g\JJJ	.	.
=119	=119	=119	=119	=119	=119	=119
*^	*	*	*	*	*	*
!	!	!	!	!LO:TX:b:t=dol	!	!	!
8B/L	4.C\	.	.	8dd/L	32dd\LLL	.	.
.	.	.	.	.	32g\	.	.
.	.	.	.	.	32f\	.	.
.	.	.	.	.	32g\JJJ	.	.
8G/	.	.	.	8ee/	32ee\LLL	.	.
.	.	.	.	.	32g\	.	.
.	.	.	.	.	32f\	.	.
.	.	.	.	.	32g\JJJ	.	.
8G/J	.	.	.	8dd/J	32dd\LLL	.	.
.	.	.	.	.	32g\	.	.
.	.	.	.	.	32f\	.	.
.	.	.	.	.	32g\JJJ	.	.
=120	=120	=120	=120	=120	=120	=120	=120
8c/L	4.C\	.	.	8cc/L	32cc\LLL	.	.
.	.	.	.	.	32g\	.	.
.	.	.	.	.	32e\	.	.
.	.	.	.	.	32g\JJJ	.	.
8G/	.	.	.	8b/	32b\LLL	.	.
.	.	.	.	.	32g\	.	.
.	.	.	.	.	32e\	.	.
.	.	.	.	.	32g\JJJ	.	.
8G/J	.	.	.	8a/J	32a\LLL	.	.
.	.	.	.	.	32g\	.	.
.	.	.	.	.	32e\	.	.
.	.	.	.	.	32g\JJJ	.	.
=121	=121	=121	=121	=121	=121	=121	=121
8B/L	4.C\	.	.	8g/L	32g\LLL	.	.
.	.	.	.	.	32f\	.	.
.	.	.	.	.	32d\	.	.
.	.	.	.	.	32f\JJJ	.	.
8G/	.	.	.	8a/	32a\LLL	.	.
.	.	.	.	.	32f\	.	.
.	.	.	.	.	32d\	.	.
.	.	.	.	.	32f\JJJ	.	.
8d/J	.	.	.	8b/J	32b\LLL	.	.
.	.	.	.	.	32f\	.	.
.	.	.	.	.	32d\	.	.
.	.	.	.	.	32f\JJJ	.	.
=122	=122	=122	=122	=122	=122	=122	=122
8c/L	4.C\	.	.	4cc/	32cc\LLL	.	.
.	.	.	.	.	32g\	.	.
.	.	.	.	.	32e\	.	.
.	.	.	.	.	32g\JJJ	.	.
8G/	.	.	.	.	32e\LLL	.	.
.	.	.	.	.	32g\	.	.
.	.	.	.	.	32e\	.	.
.	.	.	.	.	32g\JJJ	.	.
8G/J	.	.	.	8cc#X/	32cc#\LLL	.	.
.	.	.	.	.	32g\	.	.
.	.	.	.	.	32e\	.	.
.	.	.	.	.	32g\JJJ	.	.
=123	=123	=123	=123	=123	=123	=123	=123
8B/L	4.C\	.	.	8dd/L	32dd\LLL	.	.
.	.	.	.	.	32g\	.	.
.	.	.	.	.	32f\	.	.
.	.	.	.	.	32g\JJJ	.	.
8G/	.	.	.	8ee/	32ee\LLL	.	.
.	.	.	.	.	32g\	.	.
.	.	.	.	.	32f\	.	.
.	.	.	.	.	32g\JJJ	.	.
8G/J	.	.	.	8ff/J	32ff\LLL	.	.
.	.	.	.	.	32g\	.	.
.	.	.	.	.	32f\	.	.
.	.	.	.	.	32g\JJJ	.	.
=124	=124	=124	=124	=124	=124	=124	=124
8c/L	4.C\	.	.	4gg/	32gg\LLL	.	.
.	.	.	.	.	32g\	.	.
.	.	.	.	.	32e\	.	.
.	.	.	.	.	32g\JJJ	.	.
8G/	.	.	.	.	32e\LLL	.	.
.	.	.	.	.	32g\	.	.
.	.	.	.	.	32e\	.	.
.	.	.	.	.	32g\JJJ	.	.
8G/J	.	.	.	8ee/	32ee\LLL	.	.
.	.	.	.	.	32g\	.	.
.	.	.	.	.	32e\	.	.
.	.	.	.	.	32g\JJJ	.	.
=125	=125	=125	=125	=125	=125	=125	=125
8B/L	4.C\	.	.	8dd/L	32dd\LLL	.	.
.	.	.	.	.	32g\	.	.
.	.	.	.	.	32f\	.	.
.	.	.	.	.	32g\JJJ	.	.
8G/	.	.	.	8ee/	32ee\LLL	.	.
.	.	.	.	.	32g\	.	.
.	.	.	.	.	32f\	.	.
.	.	.	.	.	32g\JJJ	.	.
8G/J	.	.	.	8dd/J	32dd\LLL	.	.
.	.	.	.	.	32g\	.	.
.	.	.	.	.	32f\	.	.
.	.	.	.	.	32g\JJJ	.	.
=126	=126	=126	=126	=126	=126	=126	=126
4c/	4C\	.	.	4cc/	32cc\LLL	.	.
.	.	.	.	.	32g\	.	.
.	.	.	.	.	32e\	.	.
.	.	.	.	.	32g\JJJ	.	.
.	.	.	.	.	32e\LLL	.	.
.	.	.	.	.	32g\	.	.
.	.	.	.	.	32e\	.	.
.	.	.	.	.	32g\JJJ	.	.
8r	8ryy	.	.	8cc/	32cc\LLL	.	.
.	.	.	.	.	32g\	.	.
.	.	.	.	.	32e\	.	.
.	.	.	.	.	32g\JJJ	.	.
*v	*v	*	*	*	*	*	*
=127	=127	=127	=127	=127	=127	=127
!	!	!	!LO:TX:b:t=ped	!	!	!
4GGG/ 4GG/	.	.	4gg/	32gg\LLL	.	f
.	.	.	.	32b\	.	.
.	.	.	.	32g\	.	.
.	.	.	.	32b\JJJ	.	.
.	.	.	.	32g\LLL	.	.
.	.	.	.	32b\	.	.
.	.	.	.	32g\	.	.
.	.	.	.	32b\JJJ	.	.
8qF#X/	.	.	.	.	.	.
8G^\	.	.	8gg/	32gg\LLL	.	.
.	.	.	.	32b\	.	.
.	.	.	.	32g\	.	.
.	.	.	.	32b\JJJ	.	.
=128	=128	=128	=128	=128	=128	=128
4GGG/ 4GG/	.	.	4gg/	32gg\LLL	.	.
.	.	.	.	32cc\	.	.
.	.	.	.	32a\	.	.
.	.	.	.	32cc\JJJ	.	.
.	.	.	.	32a\LLL	.	.
.	.	.	.	32cc\	.	.
.	.	.	.	32a\	.	.
.	.	.	.	32cc\JJJ	.	.
8qF#X/	.	.	.	.	.	.
8G^\	.	.	8gg/	32gg\LLL	.	.
.	.	.	.	32cc\	.	.
.	.	.	.	32a\	.	.
.	.	.	.	32cc\JJJ	.	.
=129	=129	=129	=129	=129	=129	=129
4GGG/ 4GG/	.	.	4gg/	32gg\LLL	.	.
.	.	.	.	32dd\	.	.
.	.	.	.	32b\	.	.
.	.	.	.	32dd\JJJ	.	.
.	.	.	.	32b\LLL	.	.
.	.	.	.	32dd\	.	.
.	.	.	.	32b\	.	.
.	.	.	.	32dd\JJJ	.	.
8qF#X/	.	.	.	.	.	.
8G^\	.	.	8gg/	32gg\LLL	.	.
.	.	.	.	32dd\	.	.
.	.	.	.	32b\	.	.
.	.	.	.	32dd\JJJ	.	.
=130	=130	=130	=130	=130	=130	=130
4GGG/ 4GG/	.	.	4gg/	32gg\LLL	.	.
.	.	.	.	32ee-X\	.	.
.	.	.	.	32cc\	.	.
.	.	.	.	32ee-\JJJ	.	.
.	.	.	.	32cc\LLL	.	.
.	.	.	.	32ee-\	.	.
.	.	.	.	32cc\	.	.
.	.	.	.	32ee-\JJJ	.	.
8qF#X/	.	.	.	.	.	.
8G^\	.	.	8gg/	32gg\LLL	.	.
.	.	.	.	32ee-\	.	.
.	.	.	.	32cc\	.	.
.	.	.	.	32ee-\JJJ	.	.
=131	=131	=131	=131	=131	=131	=131
4GGG/ 4GG/	.	.	4gg/	32gg\LLL	.	.
.	.	.	.	32ff\	.	.
.	.	.	.	32dd\	.	.
.	.	.	.	32ff\JJJ	.	.
.	.	.	.	32dd\LLL	.	.
.	.	.	.	32ff\	.	.
.	.	.	.	32dd\	.	.
.	.	.	.	32ff\JJJ	.	.
8qF#X/	.	.	.	.	.	.
8G\	.	.	8gg/	32gg\LLL	.	.
.	.	.	.	32ff\	.	.
.	.	.	.	32dd\	.	.
.	.	.	.	32ff\JJJ	.	.
=132	=132	=132	=132	=132	=132	=132
4GGG/ 4GG/	.	.	4gg/	32gg\LLL	.	.
.	.	.	.	32ee-X\	.	.
.	.	.	.	32cc\	.	.
.	.	.	.	32ee-\JJJ	.	.
.	.	.	.	32cc\LLL	.	.
.	.	.	.	32ee-\	.	.
.	.	.	.	32cc\	.	.
.	.	.	.	32ee-\JJJ	.	.
8qF#X/	.	.	.	.	.	.
8G\	.	.	8gg/	32gg\LLL	.	.
.	.	.	.	32ee-\	.	.
.	.	.	.	32cc\	.	.
.	.	.	.	32ee-\JJJ	.	.
=133	=133	=133	=133	=133	=133	=133
8GG/L 8G/	.	.	8ff#X/L	32ff#\LLL	.	.
.	.	.	.	32ee-X\	.	.
.	.	.	.	32cc\	.	.
.	.	.	.	32ee-\JJJ	.	.
8GG/ 8G/	.	.	8ff#/	32ff#\LLL	.	.
.	.	.	.	32dd\	.	.
.	.	.	.	32cc\	.	.
.	.	.	.	32dd\JJJ	.	.
!	!	!	!LO:TX:a:t=rallen	!	!	!
8GG/J 8G/	.	.	8ff#/J	32ff#\LLL	.	.
.	.	.	.	32ee-\	.	.
.	.	.	.	32cc\	.	.
.	.	.	.	32ee-\JJJ	.	.
=134	=134	=134	=134	=134	=134	=134
4GG\ 4G\	.	.	4gg/	32gg\LLL	.	.
.	.	.	.	32dd\	.	.
.	.	.	.	32b\	.	.
.	.	.	.	32dd\JJJ	.	.
.	.	.	.	32b\LLL	.	.
.	.	.	.	32dd\	.	.
.	.	.	.	32b\	.	.
.	.	.	.	32dd\JJJ	.	.
8r	.	.	8gg/	32gg\LLL	.	.
.	.	.	.	32dd\	.	.
.	.	.	.	32b\	.	.
.	.	.	.	32dd\JJJ	.	.
=135	=135	=135	=135	=135	=135	=135
*^	*	*	*	*	*	*
8B/L	4.C\	.	.	8dd/L	32dd\LLL	.	.
.	.	.	.	.	32g\	.	.
.	.	.	.	.	32f\	.	.
.	.	.	.	.	32g\JJJ	.	.
8G/	.	.	.	8ee/	32ee\LLL	.	.
.	.	.	.	.	32g\	.	.
.	.	.	.	.	32f\	.	.
.	.	.	.	.	32g\JJJ	.	.
8G/J	.	.	.	8dd/J	32dd\LLL	.	.
.	.	.	.	.	32g\	.	.
.	.	.	.	.	32f\	.	.
.	.	.	.	.	32g\JJJ	.	.
=136	=136	=136	=136	=136	=136	=136	=136
8c/L	4.C\	.	.	8cc/L	32cc\LLL	.	.
.	.	.	.	.	32g\	.	.
.	.	.	.	.	32e\	.	.
.	.	.	.	.	32g\JJJ	.	.
8G/	.	.	.	8b/	32b\LLL	.	.
.	.	.	.	.	32g\	.	.
.	.	.	.	.	32e\	.	.
.	.	.	.	.	32g\JJJ	.	.
8G/J	.	.	.	8a/J	32a\LLL	.	.
.	.	.	.	.	32g\	.	.
.	.	.	.	.	32e\	.	.
.	.	.	.	.	32g\JJJ	.	.
=137	=137	=137	=137	=137	=137	=137	=137
8B/L	4.C\	.	.	8g/L	32g\LLL	.	.
.	.	.	.	.	32f\	.	.
.	.	.	.	.	32d\	.	.
.	.	.	.	.	32f\JJJ	.	.
8G/	.	.	.	8a-X/	32a-\LLL	.	.
.	.	.	.	.	32f\	.	.
.	.	.	.	.	32d\	.	.
.	.	.	.	.	32f\JJJ	.	.
8G/J	.	.	.	8g/J	32g\LLL	.	.
.	.	.	.	.	32f\	.	.
.	.	.	.	.	32d\	.	.
.	.	.	.	.	32f\JJJ	.	.
=138	=138	=138	=138	=138	=138	=138	=138
8c/L	4.C\	.	.	4cc/	32cc\LLL	.	.
.	.	.	.	.	32g\	.	.
.	.	.	.	.	32e\	.	.
.	.	.	.	.	32g\JJJ	.	.
8G/	.	.	.	.	32e\LLL	.	.
.	.	.	.	.	32g\	.	.
.	.	.	.	.	32e\	.	.
.	.	.	.	.	32g\JJJ	.	.
8G/J	.	.	.	8cc#X/	32cc#\LLL	.	.
.	.	.	.	.	32g\	.	.
.	.	.	.	.	32e\	.	.
.	.	.	.	.	32g\JJJ	.	.
=139	=139	=139	=139	=139	=139	=139	=139
8c/L	4.C\	.	.	8dd/L	32dd\LLL	.	.
.	.	.	.	.	32g\	.	.
.	.	.	.	.	32f\	.	.
.	.	.	.	.	32g\JJJ	.	.
8G/	.	.	.	8ee/	32ee\LLL	.	.
.	.	.	.	.	32g\	.	.
.	.	.	.	.	32f\	.	.
.	.	.	.	.	32g\JJJ	.	.
8G/J	.	.	.	8ff/J	32ff\LLL	.	.
.	.	.	.	.	32g\	.	.
.	.	.	.	.	32f\	.	.
.	.	.	.	.	32g\JJJ	.	.
=140	=140	=140	=140	=140	=140	=140	=140
8c/L	4.C\	.	.	4gg/	32gg\LLL	.	.
.	.	.	.	.	32g\	.	.
.	.	.	.	.	32e\	.	.
.	.	.	.	.	32g\JJJ	.	.
8G/	.	.	.	.	32e\LLL	.	.
.	.	.	.	.	32g\	.	.
.	.	.	.	.	32e\	.	.
.	.	.	.	.	32g\JJJ	.	.
8G/J	.	.	.	8ee/	32ee\LLL	.	.
.	.	.	.	.	32g\	.	.
.	.	.	.	.	32e\	.	.
.	.	.	.	.	32g\JJJ	.	.
=141	=141	=141	=141	=141	=141	=141	=141
8B/L	4.C\	.	.	8dd/L	32dd\LLL	.	.
.	.	.	.	.	32g\	.	.
.	.	.	.	.	32f\	.	.
.	.	.	.	.	32g\JJJ	.	.
8G/	.	.	.	8ee/	32ee\LLL	.	.
.	.	.	.	.	32g\	.	.
.	.	.	.	.	32f\	.	.
.	.	.	.	.	32g\JJJ	.	.
8G/J	.	.	.	8dd/J	32dd\LLL	.	.
.	.	.	.	.	32g\	.	.
.	.	.	.	.	32f\	.	.
.	.	.	.	.	32g\JJJ	.	.
*v	*v	*	*	*	*	*	*
=142	=142	=142	=142	=142	=142	=142
4C\ 4c\	.	.	4cc/	32cc\LLL	.	.
.	.	.	.	32g\	.	.
.	.	.	.	32e\	.	.
.	.	.	.	32g\JJJ	.	.
.	.	.	.	32e\LLL	.	.
.	.	.	.	32g\	.	.
.	.	.	.	32e\	.	.
.	.	.	.	32g\JJJ	.	.
8AA\ 8A\	.	.	8cc#X/	32cc#\LLL	.	sf
.	.	.	.	32g\	.	.
.	.	.	.	32e\	.	.
.	.	.	.	32g\JJJ	.	.
=143	=143	=143	=143	=143	=143	=143
4D\ 4d\	.	.	4dd/	32dd\LLL	.	.
.	.	.	.	32a\	.	.
.	.	.	.	32f\	.	.
.	.	.	.	32a\JJJ	.	.
.	.	.	.	32f\LLL	.	.
.	.	.	.	32a\	.	.
.	.	.	.	32f\	.	.
.	.	.	.	32a\JJJ	.	.
8BB\ 8B\	.	.	8dd#X/	32dd#\LLL	.	sf
.	.	.	.	32a\	.	.
.	.	.	.	32f\	.	.
.	.	.	.	32a\JJJ	.	.
=144	=144	=144	=144	=144	=144	=144
4E\ 4e\	.	.	4ee/	32ee\LLL	.	.
.	.	.	.	32b\	.	.
.	.	.	.	32g\	.	.
.	.	.	.	32b\JJJ	.	.
.	.	.	.	32g\LLL	.	.
.	.	.	.	32b\	.	.
.	.	.	.	32g\	.	.
.	.	.	.	32b\JJJ	.	.
8C\ 8c\	.	.	8ee/	32ee\LLL	.	sf
.	.	.	.	32b-X\	.	.
.	.	.	.	32g\	.	.
.	.	.	.	32b-\JJJ	.	.
=145	=145	=145	=145	=145	=145	=145
4F\ 4f\	.	.	4ff/	32ff\LLL	.	.
.	.	.	.	32cc\	.	.
.	.	.	.	32a\	.	.
.	.	.	.	32cc\JJJ	.	.
.	.	.	.	32a\LLL	.	.
.	.	.	.	32cc\	.	.
.	.	.	.	32a\	.	.
.	.	.	.	32cc\JJJ	.	.
8D\ 8d\	.	.	8ff#X/	32ff#\LLL	.	sf
.	.	.	.	32cc\	.	.
.	.	.	.	32a\	.	.
.	.	.	.	32cc\JJJ	.	.
=146	=146	=146	=146	=146	=146	=146
8G\L 8g\	.	<	8gg/L	32gg\LLL	.	.
.	.	.	.	32b\	.	.
.	.	.	.	32g\	.	.
.	.	.	.	32b\JJJ	.	.
8F\ 8f\	.	.	8gg/	32gg\LLL	.	.
.	.	.	.	32b\	.	.
.	.	.	.	32g\	.	.
.	.	.	.	32b\JJJ	.	.
8E\J 8e\	.	[	8gg/J	32gg\LLL	.	.
.	.	.	.	32cc\	.	.
.	.	.	.	32g\	.	.
.	.	.	.	32cc\JJJ	.	.
=147	=147	=147	=147	=147	=147	=147
8D\L 8d\	.	.	8ff#X/L	32ff#\LLL	.	.
.	.	.	.	32cc\	.	.
.	.	.	.	32a\	.	.
.	.	.	.	32ff#\JJJ	.	.
8BB\ 8B\	.	.	8ffn/	32ff\LLL	.	.
.	.	.	.	32dd\	.	.
.	.	.	.	32a-X\	.	.
.	.	.	.	32ff\JJJ	.	.
8C\J 8c\	.	.	8ee/J	32ee\LLL	.	.
.	.	.	.	32cc\	.	.
.	.	.	.	32g\	.	.
.	.	.	.	32ee\JJJ	.	.
=148	=148	=148	=148	=148	=148	=148
!LO:TX:a:t=P:problem=mixed beam	!	!	!	!	!	!
(8F`\L	.	.	8dd/L	32dd\LLL	.	.
.	.	.	.	32an\	.	.
.	.	.	.	32f\	.	.
.	.	.	.	32dd\JJJ	.	.
8G`\	.	.	8cc/	32cc\LLL	.	.
.	.	.	.	32g\	.	.
.	.	.	.	32e\	.	.
.	.	.	.	32cc\JJJ	.	.
8GG`/J)	.	.	8b/J	32b\LLL	.	.
.	.	.	.	32f\	.	.
.	.	.	.	32d\	.	.
.	.	.	.	32b\JJJ	.	.
!!LO:LB:g=original
=149	=149	=149	=149	=149	=149	=149
4C/	.	.	16e/ 16cc/	4rcyy	.	.
.	.	.	32e/LLL	.	.	.
.	.	.	32g/JJJ	.	.	.
.	.	.	32e/LLL	.	.	.
.	.	.	32g/	.	.	.
.	.	.	32e/	.	.	.
.	.	.	32g/JJJ	.	.	.
8r	.	.	8cc/	32cc\LLL	.	p
.	.	.	.	32g\	.	.
.	.	.	.	32e\	.	.
.	.	.	.	32g\JJJ	.	.
=150	=150	=150	=150	=150	=150	=150
*^	*	*	*	*	*	*
8B/L	4.C\	.	.	8dd/L	32dd\LLL	.	.
.	.	.	.	.	32g\	.	.
.	.	.	.	.	32f\	.	.
.	.	.	.	.	32g\JJJ	.	.
8G/	.	.	.	8ee/	32ee\LLL	.	.
.	.	.	.	.	32g\	.	.
.	.	.	.	.	32f\	.	.
.	.	.	.	.	32g\JJJ	.	.
8G/J	.	.	.	8dd/J	32dd\LLL	.	.
.	.	.	.	.	32g\	.	.
.	.	.	.	.	32f\	.	.
.	.	.	.	.	32g\JJJ	.	.
=151	=151	=151	=151	=151	=151	=151	=151
8c/L	4.C\	.	.	4cc/	32cc\LLL	.	.
.	.	.	.	.	32g\	.	.
.	.	.	.	.	32e\	.	.
.	.	.	.	.	32g\JJJ	.	.
8G/	.	.	.	.	32e\LLL	.	.
.	.	.	.	.	32g\	.	.
.	.	.	.	.	32e\	.	.
.	.	.	.	.	32g\JJJ	.	.
8G/J	.	.	.	8cc#X^/	32cc#\LLL	.	.
.	.	.	.	.	32g\	.	.
.	.	.	.	.	32e\	.	.
.	.	.	.	.	32g\JJJ	.	.
=152	=152	=152	=152	=152	=152	=152	=152
8B/L	4.C\	.	.	8dd/L	32dd\LLL	.	.
.	.	.	.	.	32g\	.	.
.	.	.	.	.	32f\	.	.
.	.	.	.	.	32g\JJJ	.	.
8G/	.	.	.	8ee/	32ee\LLL	.	.
.	.	.	.	.	32g\	.	.
.	.	.	.	.	32f\	.	.
.	.	.	.	.	32g\JJJ	.	.
8G/J	.	.	.	8dd/J	32dd\LLL	.	.
.	.	.	.	.	32g\	.	.
.	.	.	.	.	32f\	.	.
.	.	.	.	.	32g\JJJ	.	.
!!LO:LB:g=original
=153	=153	=153	=153	=153	=153	=153	=153
!	!	!	!	!LO:TX:a:t=per-	!	!	!
8c/L	4.C\	.	.	4cc/	32cc\LLL	.	.
.	.	.	.	.	32g\	.	.
.	.	.	.	.	32e\	.	.
.	.	.	.	.	32g\JJJ	.	.
8G/	.	.	.	.	32e\LLL	.	.
!	!	!	!	!LO:TX:a:t=den-	!	!	!
.	.	.	.	.	32g\	.	.
.	.	.	.	.	32e\	.	.
.	.	.	.	.	32g\JJJ	.	.
8G/J	.	.	.	8ee/	32ee\LLL	.	.
.	.	.	.	.	32g\	.	.
.	.	.	.	.	32e\	.	.
.	.	.	.	.	32g\JJJ	.	.
=154	=154	=154	=154	=154	=154	=154	=154
!	!	!	!	!LO:TX:a:t=-do-	!	!	!
8c/L	4.C\	.	.	4cc/	32cc\LLL	.	.
.	.	.	.	.	32g\	.	.
.	.	.	.	.	32e\	.	.
!	!	!	!	!LO:TX:a:t=si	!	!	!
.	.	.	.	.	32g\JJJ	.	.
8G/	.	.	.	.	32e\LLL	.	.
.	.	.	.	.	32g\	.	.
.	.	.	.	.	32e\	.	.
.	.	.	.	.	32g\JJJ	.	.
8G/J	.	.	.	8ee/	32ee\LLL	.	.
.	.	.	.	.	32g\	.	.
.	.	.	.	.	32e\	.	.
.	.	.	.	.	32g\JJJ	.	.
*v	*v	*	*	*	*	*	*
*	*	*	*v	*v	*	*
=155	=155	=155	=155	=155	=155
8C\ 8c\	.	.	8e/ 8g/ 8cc/	.	f
16r	.	.	16r	.	.
32c\LLL	.	.	32c/LLL	.	.
32G\JJJ	.	.	32e/JJJ	.	.
32E\LLL	.	.	(32g/LLL	.	.
32C\	.	.	32cc/	.	.
32GG\	.	.	32ee/	.	.
32EE\JJJ	.	.	32gg/JJJ)	.	.
=156	=156	=156	=156	=156	=156
8CC/	.	.	8cc\ 8ee\ 8gg\ 8ccc\	.	.
16r	.	.	16r	.	.
32c\LLL	.	.	32c/LLL	.	.
32G\JJJ	.	.	32e/JJJ	.	.
32E\LLL	.	.	32g/LLL	.	.
32C\	.	.	32cc/	.	.
32GG\	.	.	32ee/	.	.
32EE\JJJ	.	.	32gg/JJJ	.	.
=157	=157	=157	=157	=157	=157
4CC;/	.	.	4cc;\ 4ee\ 4gg\ 4ccc\	.	.
8r;	.	.	8r;	.	.
==	==	==	==	==	==
*-	*-	*-	*-	*-	*-
!!!system-decoration: {(s1,s2)}
!!!RDF**kern: > = above
!!!RDF**kern: < = below
!!!EED: Leszek Kubiak
!!!EEV: 2020-07-21
!!!ENC: Marcin Jachim
!!!END: 2020-06-16
